!!!!SEGMENT: pl-wtm--r-123-n_noskowski-zygmunt--melodie.krn
!!!cenid: 18xx:2143
!!!COM: Noskowski, Zygmunt
!!!COM-rismID: pe106604
!!!CDT: 1846/05/02-1909/07/23
!!!CNT: Polish
!!!OTL: Melodie
!!!PDT:
!!!AGN: Secular
!!!SMS-siglum: PL-Wtm
!!!SMS-shelfmark: R 123/N
!!!SMS-shelfwork: W
!!!SMS-variant: Partytura PL-Wtm R 123/N 5-7
!!!SMS-altvar: Clarinetto in A PL-Wtm R 123a/N 9-12 ; Corno in D 13-16 ; Fagott 17-20 ; Violino Imo e IIdo 21-42 ; Violino 3te 43-46 ; Viola 1mo 47-48,51-52 ; Viola 2do 49-50,53-54 ; Cello 55-58 ; Basso 59-61
!!!NIFC-rismSourceID: 1001148293
!!!NIFC-islandoraID:
!!!URL-pdf-islandora:
!!!URL-scan:
!!!ONB-nifc: UWAGA: na podstawie partytury. Sygnatura głosów to 123a/N (proszę uzupełnić pola SMS)
!!!AIN: 1 cbass 1 cello 1 clars 1 cor 1 fagot 2 viola 1 violn
!!!OMD: Andante con moto
!!!key: A
**kern	**dynam	**mod-dynam	**kern	**dynam	**mod-dynam	**kern	**dynam	**mod-dynam	**kern	**dynam	**mod-dynam	**kern	**dynam	**mod-dynam	**kern	**dynam	**mod-dynam	**kern	**dynam	**mod-dynam	**kern	**dynam	**mod-dynam
*part8	*part8	*part8	*part7	*part7	*part7	*part6	*part6	*part6	*part5	*part5	*part5	*part4	*part4	*part4	*part3	*part3	*part3	*part2	*part2	*part2	*part1	*part1	*part1
*group2	*	*	*group2	*	*	*group2	*	*	*group2	*	*	*group2	*	*	*group1	*	*	*group1	*	*	*group1	*	*
*staff8	*	*	*staff7	*	*	*staff6	*	*	*staff5	*	*	*staff4	*	*	*staff3	*	*	*staff2	*	*	*staff1	*	*
*Icbass	*	*	*Icello	*	*	*Iviola	*	*	*Iviola	*	*	*Ivioln	*	*	*Ifagot	*	*	*Icor	*	*	*Iclars	*	*
*ICstr	*	*	*ICstr	*	*	*ICstr	*	*	*ICstr	*	*	*ICstr	*	*	*ICww	*	*	*ICbras	*	*	*ICww	*	*
*I"Basso	*	*	*I"Cello	*	*	*I"Viola 2da	*	*	*I"Viola 1a	*	*	*I"Violino 1i e 2di unissono	*	*	*I"2 Fagotti	*	*	*I"2 Corni in D	*	*	*I"2 Clarinetti in A	*	*
*mI"Contrabbasso	*	*	*mI"Violoncello	*	*	*mI"Viola II	*	*	*mI"Viola I	*	*	*mI"Violini I, II	*	*	*mI"Fagotti I, II	*	*	*mI"Corni I, II in D	*	*	*mI"Clarinetti I, II in A	*	*
*I'	*	*	*I'	*	*	*I'	*	*	*I'	*	*	*I'	*	*	*I'	*	*	*I'	*	*	*I'	*	*
*mI'cb	*	*	*mI'vlc	*	*	*mI'vla II	*	*	*mI'vla I	*	*	*mI'vl I, II	*	*	*mI'fag I, II	*	*	*mI'cor I, II in D	*	*	*mI'cl I, II in A	*	*
*clefF4	*	*	*clefF4	*	*	*clefC3	*	*	*clefC3	*	*	*clefG2	*	*	*clefF4	*	*	*clefG2	*	*	*clefG2	*	*
*ITrd0c0	*	*	*	*	*	*	*	*	*	*	*	*	*	*	*	*	*	*ITrd6c10	*	*	*ITrd2c3	*	*
*k[f#c#g#]	*	*	*k[f#c#g#]	*	*	*k[f#c#g#]	*	*	*k[f#c#g#]	*	*	*k[f#c#g#]	*	*	*k[f#c#g#]	*	*	*k[f#c#]	*	*	*k[f#c#g#]	*	*
*A:	*	*	*A:	*	*	*A:	*	*	*A:	*	*	*A:	*	*	*A:	*	*	*A:	*	*	*A:	*	*
*M3/4	*	*	*M3/4	*	*	*M3/4	*	*	*M3/4	*	*	*M3/4	*	*	*M3/4	*	*	*M3/4	*	*	*M3/4	*	*
=1	=1	=1	=1	=1	=1	=1	=1	=1	=1	=1	=1	=1	=1	=1	=1	=1	=1	=1	=1	=1	=1	=1	=1
*2\right	*	*	*2\right	*	*	*2\right	*	*	*2\right	*	*	*2\right	*	*	*2\right	*	*	*2\right	*	*	*2\right	*	*
!!LO:TX:t=P:problem=4,8,16\left, middle or right
!	!	!	!	!	!	!	!	!	!	!	!	!	!	!	!	!	!	!	!	!	!	!LO:DY:rj	!LO:DY:rj
(2AA/	p	p	(2AA/	p	p	(8.A/L	p	p	(8.c#\L	p	p	2.r	.	.	2.r	.	.	2.r	.	.	[2.c# [2.A/	p	p
.	.	.	.	.	.	16A'/Jk)	.	.	16c#'\Jk)	.	.	.	.	.	.	.	.	.	.	.	.	.	.
.	.	.	.	.	.	(8.A/L	.	.	(8.c#\L	.	.	.	.	.	.	.	.	.	.	.	.	.	.
.	.	.	.	.	.	16A'/Jk)	.	.	16c#'\Jk)	.	.	.	.	.	.	.	.	.	.	.	.	.	.
4BB/)	.	.	4BB/)	.	.	(8.A/L	.	.	(8.c#\L	.	.	.	.	.	.	.	.	.	.	.	.	.	.
.	.	.	.	.	.	16A'/Jk)	.	.	16c#'\Jk)	.	.	.	.	.	.	.	.	.	.	.	.	.	.
=2	=2	=2	=2	=2	=2	=2	=2	=2	=2	=2	=2	=2	=2	=2	=2	=2	=2	=2	=2	=2	=2	=2	=2
!	!	!	!	!	!	!LO:TX:a:i:t=segue:mod=sim.	!	!	!LO:TX:a:i:t=segue:mod=sim.	!	!	!	!	!	!	!	!	!	!	!	!	!	!
(4C#/	.	.	(4C#/	.	.	8.A/L	.	.	8.c#\L	.	.	2.r	.	.	2.r	.	.	2.r	.	.	2.c#_ 2.A/_	.	.
.	.	.	.	.	.	16A/Jk	.	.	16c#\Jk	.	.	.	.	.	.	.	.	.	.	.	.	.	.
4AA/	<	<	4AA/	.	<	8.A/L	<	<	8.c#\L	<	<	.	.	.	.	.	.	.	.	.	.	.	.
.	.	.	.	.	.	16A/Jk	.	.	16c#\Jk	.	.	.	.	.	.	.	.	.	.	.	.	.	.
!	!	!	!	!LO:HP:a	!	!	!	!	!	!	!	!	!	!	!	!	!	!	!	!	!	!	!
4E\)	.	.	4EE/)	<	.	8.A/L	.	.	8.c#\L	.	.	.	.	.	.	.	.	.	.	.	.	.	.
.	.	.	.	.	.	16A/Jk	.	.	16c#\Jk	.	.	.	.	.	.	.	.	.	.	.	.	.	.
=3	=3	=3	=3	=3	=3	=3	=3	=3	=3	=3	=3	=3	=3	=3	=3	=3	=3	=3	=3	=3	=3	=3	=3
*	*	*	*	*	*	*	*	*	*	*	*	*	*	*	*	*	*	*	*	*	*^	*	*
(4F#\	.	.	(4FF#/	.	.	8.A/L	.	.	8.c#/L	.	.	2.r	.	.	2.r	.	.	2.r	.	.	4c#/]	2.A\_	.	.
.	.	.	.	.	.	16A/Jk	.	.	16c#/Jk	.	.	.	.	.	.	.	.	.	.	.	.	.	.	.
4D\)	[	[	4DD/)	[	[	8.A/L	[	[	8.B/L	[	[	.	.	.	.	.	.	.	.	.	([2B/	.	.	.
.	.	.	.	.	.	16A/Jk	.	.	16B/Jk	.	.	.	.	.	.	.	.	.	.	.	.	.	.	.
!LO:SIC:s=[4D^/	!	!	!	!	!	!	!	!	!	!	!	!	!	!	!	!	!	!	!	!	!	!	!	!
[4D/	.	.	[4D^>/	.	.	8.A/L	>	>	8.B/L	>	>	.	.	.	.	.	.	.	.	.	.	.	.	.
!	!	!	!	!LO:HP:a	!	!	!	!	!	!	!	!	!	!	!	!	!	!	!	!	!	!	!	!
.	.	.	.	>	.	16A/Jk	.	.	16B/Jk	.	.	.	.	.	.	.	.	.	.	.	.	.	.	.
=4	=4	=4	=4	=4	=4	=4	=4	=4	=4	=4	=4	=4	=4	=4	=4	=4	=4	=4	=4	=4	=4	=4	=4	=4
4D/]	>	>	4D/]	.	>	8.A/L	.	.	8.B/L	.	.	2.r	.	.	2.r	.	.	2.r	.	.	4B/]	2.A\_	.	.
.	.	.	.	.	.	16A/Jk	.	.	16B/Jk	.	.	.	.	.	.	.	.	.	.	.	.	.	.	.
(4C#/	.	.	(4C#/	.	.	8.A/L	.	.	8.c#\L	.	.	.	.	.	.	.	.	.	.	.	4c#/	.	.	.
.	.	.	.	.	.	16A/Jk	.	.	16c#\Jk	.	.	.	.	.	.	.	.	.	.	.	.	.	.	.
[4BB/	.	.	[4BB/	.	.	8.A/L	.	.	8.d\L	.	.	.	.	.	.	.	.	.	.	.	4d/)	.	.	.
.	.	.	.	]]	.	16A/Jk	]]	]]	16d\Jk	]]	]]	.	.	.	.	.	.	.	.	.	.	.	.	.
=5	=5	=5	=5	=5	=5	=5	=5	=5	=5	=5	=5	=5	=5	=5	=5	=5	=5	=5	=5	=5	=5	=5	=5	=5
4BB/])	.	.	4BB/])	.	.	8.A/L	<	<	8.d\L	<	<	2.r	.	.	2.r	.	.	2.r	.	.	(2d/	4A\]	.	.
.	]	]	.	.	]	16A/Jk	.	.	16d\Jk	.	.	.	.	.	.	.	.	.	.	.	.	.	.	.
(4EE/	<	<	(4EE/	<	<	8.G#/L	.	.	8.d\L	.	.	.	.	.	.	.	.	.	.	.	.	[2G#\	.	.
.	.	.	.	.	.	16G#/Jk	.	.	16d\Jk	.	.	.	.	.	.	.	.	.	.	.	.	.	.	.
4E\)	[[	[[	4E\)	[[	[[	8.G#/L	.	.	8.c#\L	.	.	.	.	.	.	.	.	.	.	.	4c#/	.	.	.
.	.	.	.	.	.	16G#/Jk	[	[[	16c#\Jk	[[	[[	.	.	.	.	.	.	.	.	.	.	.	.	.
=6	=6	=6	=6	=6	=6	=6	=6	=6	=6	=6	=6	=6	=6	=6	=6	=6	=6	=6	=6	=6	=6	=6	=6	=6
*	*	*	*	*	*	*	*	*	*	*	*	*	*	*	*	*	*	*^	*	*	*	*	*	*
(4D/	.	.	(4D/	.	.	8.G#/L	.	.	8.B/L	.	.	2.r	.	.	2.r	.	.	[2.E/	[2.E\	pp	pp	4B/)	4G#\]	.	.
.	>	>	.	>	>	16G#/Jk	>	>	16B/Jk	>	>	.	.	.	.	.	.	.	.	.	.	.	.	>	>
4C#/	.	.	4C#/	.	.	8.A/L	.	.	8.c#\L	.	.	.	.	.	.	.	.	.	.	.	.	(4c#/	(4A\	.	.
.	.	.	.	.	.	16A/Jk	.	.	16c#\Jk	.	.	.	.	.	.	.	.	.	.	.	.	.	.	.	.
4BB/)	]]	]]	4BB/)	]]	]]	8.B/L	.	.	8.d\L	.	.	.	.	.	.	.	.	.	.	.	.	4d/	4B\	.	.
.	.	.	.	.	.	16B/Jk	]]	]]	16d\Jk	]]	]]	.	.	.	.	.	.	.	.	.	.	.	.	]]	]]
*	*	*	*	*	*	*	*	*	*	*	*	*	*	*	*	*	*	*	*	*	*	*v	*v	*	*
!!LO:LB:g=original
=7	=7	=7	=7	=7	=7	=7	=7	=7	=7	=7	=7	=7	=7	=7	=7	=7	=7	=7	=7	=7	=7	=7	=7	=7
!	!	!	!	!	!	!	!	!	!	!	!	!	!	!	!LO:TX:a:t= :mod=[I]	!	!	!	!	!	!	!LO:SIC:s=[2.c#/ [2.e	!	!
2AA/	pp	pp	2.AA/	pp	pp	8.c#\L	pp	pp	8.e\L	pp	pp	4.ccc#\	p	p	(2.AA/	pp	pp	2E/]	2E\]	.	.	[2.e [2.c#/))	pp	pp
!	!	!	!	!	!	!	!	!	!	!	!	!LO:TX:b:i:t= :mod=espress.	!	!	!	!	!	!	!	!	!	!	!	!
.	.	.	.	.	.	16c#\Jk	.	.	16e\Jk	.	.	.	.	.	.	.	.	.	.	.	.	.	.	.
.	.	.	.	.	.	8.c#\L	.	.	8.e\L	.	.	.	.	.	.	.	.	.	.	.	.	.	.	.
!	!	!	!	!	!	!	!	!	!	!	!	!LO:TX:b:i:t=espressivo:mod=	!	!	!	!	!	!	!	!	!	!	!	!
.	.	.	.	.	.	.	.	.	.	.	.	(8bb\L	.	.	.	.	.	.	.	.	.	.	.	.
.	.	.	.	.	.	16c#\Jk	.	.	16e\Jk	.	.	.	.	.	.	.	.	.	.	.	.	.	.	.
4r	.	.	.	.	.	([4c#\	.	.	([4e\	.	.	8aa\	.	.	.	.	.	4r	4ryy	.	.	.	.	.
.	.	.	.	.	.	.	.	.	.	.	.	8ff#\J)	.	.	.	.	.	.	.	.	.	.	.	.
=8	=8	=8	=8	=8	=8	=8	=8	=8	=8	=8	=8	=8	=8	=8	=8	=8	=8	=8	=8	=8	=8	=8	=8	=8
*	*	*	*	*	*	*	*	*	*	*	*	*	*	*	*2\right	*	*	*	*	*	*	*	*	*
2.r	.	.	(2A\	.	.	8.c#\L]	.	.	8.e\L]	.	.	(8ee\L	.	.	2A\	.	.	[2.A/	[2.A\	pp	pp	[2.e] [2.c#/]	.	.
.	.	.	.	.	.	.	.	.	.	.	.	8cc#\	.	.	.	.	.	.	.	.	.	.	.	.
.	.	.	.	.	.	16c#\Jk)	.	.	16e'\Jk)	.	.	.	.	.	.	.	.	.	.	.	.	.	.	.
.	.	.	.	.	.	(8.c#\L	.	.	(8.e\L	.	.	8a\	.	.	.	.	.	.	.	.	.	.	.	.
.	.	.	.	.	.	.	.	.	.	.	.	8b\J)	.	.	.	.	.	.	.	.	.	.	.	.
.	.	.	.	.	.	16c#'\Jk)	.	.	16e'\Jk)	.	.	.	.	.	.	.	.	.	.	.	.	.	.	.
.	.	.	4G#\)	.	.	([4c#\	.	.	([4e\	.	.	(8cc#\L	.	.	4G#\	.	.	.	.	.	.	.	.	.
.	.	.	.	.	.	.	.	.	.	.	.	8aa\J)	.	.	.	.	.	.	.	.	.	.	.	.
=9	=9	=9	=9	=9	=9	=9	=9	=9	=9	=9	=9	=9	=9	=9	=9	=9	=9	=9	=9	=9	=9	=9	=9	=9
*	*	*	*	*	*	*	*	*	*	*	*	*	*	*	*	*	*	*	*	*	*	*^	*	*
!	!	!	!	!	!	!	!	!	!	!	!	!	!	!	!	!	!	!	!	!	!	!LO:SIC:s=4e/])	!LO:SIC:s=4c#\])	!	!
2.r	.	.	(2F#\	.	.	8.c#\L]	.	.	8.e\L]	.	.	4.aa\	.	.	2F#\	.	.	2.A/_	2.A\_	.	.	4e/]	4c#\]	.	.
.	.	.	.	.	.	16c#'\Jk)	.	.	16e'\Jk)	.	.	.	.	.	.	.	.	.	.	.	.	.	.	.	.
.	.	.	.	.	.	(8.A/L	.	.	(8.d\L	.	.	.	.	.	.	.	.	.	.	.	.	(4d/	[2d\	.	.
.	.	.	.	.	.	.	.	.	.	.	.	(8aa\L	.	.	.	.	.	.	.	.	.	.	.	.	.
.	.	.	.	.	.	16A'/Jk)	.	.	16d'\Jk)	.	.	.	.	.	.	.	.	.	.	.	.	.	.	.	.
.	.	.	4E\)	.	.	([4A/	.	.	([4f#\	.	.	8gg#\	.	.	4E\	.	.	.	.	.	.	[4f#/	.	.	.
.	.	.	.	.	.	.	.	.	.	.	.	8aa\J)	.	.	.	.	.	.	.	.	.	.	.	.	.
=10	=10	=10	=10	=10	=10	=10	=10	=10	=10	=10	=10	=10	=10	=10	=10	=10	=10	=10	=10	=10	=10	=10	=10	=10	=10
2.r	.	.	(2D/	.	.	8.A/L]	.	.	8.f#\L]	.	.	(4aa\	.	.	2D/	.	.	2A/]	2A\]	.	.	2.f#/])	2.d\_	.	.
.	.	.	.	.	.	16A'/Jk)	.	.	16f#'\Jk)	.	.	.	.	.	.	.	.	.	.	.	.	.	.	.	.
.	.	.	.	.	.	8.A/L	.	.	8.f#\L	.	.	4dd\)	.	.	.	.	.	.	.	.	.	.	.	.	.
.	.	.	.	.	.	16A/Jk	.	.	16f#\Jk	.	.	.	.	.	.	.	.	.	.	.	.	.	.	.	.
.	.	.	4C#/)	.	.	8.d\L	.	.	8.f#\L	.	.	8r	.	.	4C#/)	.	.	4r	4ryy	.	.	.	.	.	.
.	.	.	.	.	.	.	.	.	.	.	.	8dd\	.	.	.	.	.	.	.	.	.	.	.	.	.
.	.	.	.	.	.	16d\Jk	.	.	16f#\Jk	.	.	.	.	.	.	.	.	.	.	.	.	.	.	.	.
*	*	*	*	*	*	*	*	*	*	*	*	*	*	*	*	*	*	*	*	*	*	*v	*v	*	*
=11	=11	=11	=11	=11	=11	=11	=11	=11	=11	=11	=11	=11	=11	=11	=11	=11	=11	=11	=11	=11	=11	=11	=11	=11
2.r	.	.	(2.BB/	.	.	8.f#L 8.d\	.	.	8.b\L	.	.	4.ddd\	.	.	(>2.BB/	.	.	[2.f#/	[2.f#\	.	.	[2.b 2.d/_	.	.
.	.	.	.	.	.	16f#Jk 16d\	.	.	16b\Jk	.	.	.	.	.	.	.	.	.	.	.	.	.	.	.
.	.	.	.	.	.	8.f#L 8.d\	.	.	8.b\L	.	.	.	.	.	.	.	.	.	.	.	.	.	.	.
.	.	.	.	.	.	.	.	.	.	.	.	(8ccc#\L	.	.	.	.	.	.	.	.	.	.	.	.
.	.	.	.	.	.	16f#Jk 16d\	.	.	16b\Jk	.	.	.	.	.	.	.	.	.	.	.	.	.	.	.
.	.	.	.	.	.	([4f# [4d\	.	.	([4b\	.	.	8bb\	.	.	.	.	.	.	.	.	.	.	.	.
.	.	.	.	.	.	.	.	.	.	.	.	[8ff#\J	.	.	.	.	.	.	.	.	.	.	.	.
=12	=12	=12	=12	=12	=12	=12	=12	=12	=12	=12	=12	=12	=12	=12	=12	=12	=12	=12	=12	=12	=12	=12	=12	=12
2.r	.	.	2.AA/)	.	.	8.f#]L 8.d\]	.	.	8.b\L]	.	.	8ff#\L])	.	.	2.AA/	.	.	2.f#/_	2.f#\_	.	.	2.b_ 2.d/_	.	.
.	.	.	.	.	.	.	.	.	.	.	.	(8ff#\	<	<	.	.	.	.	.	.	.	.	.	.
.	.	.	.	.	.	16f#Jk 16d'\)	.	.	16b'\Jk)	.	.	.	.	.	.	.	.	.	.	.	.	.	.	.
.	.	.	.	.	.	(8.f#L 8.d\	.	.	(8.b\L	.	.	8gg#\	.	.	.	.	.	.	.	.	.	.	.	.
.	.	.	.	.	.	.	.	.	.	.	.	8aa\)	.	.	.	.	.	.	.	.	.	.	.	.
.	.	.	.	.	.	16f#Jk 16d'\)	.	.	16b'\Jk)	.	.	.	.	.	.	.	.	.	.	.	.	.	.	.
.	.	.	.	.	.	([4f# [4d\	.	.	([4b\	.	.	(8bb\	.	.	.	.	.	.	.	.	.	.	.	.
.	.	.	.	.	.	.	.	.	.	.	.	8ccc#\J)	[	[	.	.	.	.	.	.	.	.	.	.
!!LO:PB:g=original
=13	=13	=13	=13	=13	=13	=13	=13	=13	=13	=13	=13	=13	=13	=13	=13	=13	=13	=13	=13	=13	=13	=13	=13	=13
2.r	.	.	2.GG#/	.	.	8.f#]L 8.d\]	.	.	8.b\L]	.	.	4.bb\	.	.	2.GG#/	.	.	4f#/]	4f#\]	.	.	2.b_ 2.d/_	.	.
.	.	.	.	.	.	16f#Jk 16d'\)	.	.	16b'\Jk)	.	.	.	.	.	.	.	.	.	.	.	.	.	.	.
.	.	.	.	.	.	(8.eL 8.d\	.	.	(8.b\L	.	.	.	.	.	.	.	.	[2e/	[2e\	.	.	.	.	.
.	.	.	.	.	.	.	.	.	.	.	.	(8ee\L	>	>	.	.	.	.	.	.	.	.	.	.
.	.	.	.	.	.	16eJk 16d'\)	.	.	16b'\Jk)	.	.	.	.	.	.	.	.	.	.	.	.	.	.	.
.	.	.	.	.	.	.	.	.	.	.	.	(8qgg#/	.	.	.	.	.	.	.	.	.	.	.	.
.	.	.	.	.	.	([4e [4d\	.	.	([4b\	.	.	8ff#\)	.	.	.	.	.	.	.	.	.	.	.	.
.	.	.	.	.	.	.	.	.	.	.	.	8ee\J)	]]	]]	.	.	.	.	.	.	.	.	.	.
=14	=14	=14	=14	=14	=14	=14	=14	=14	=14	=14	=14	=14	=14	=14	=14	=14	=14	=14	=14	=14	=14	=14	=14	=14
2.r	.	.	(2AA/	.	.	8.e]L 8.d\]	.	.	8.b\L]	.	.	(4ee\	.	.	2AA/	.	.	2e/]	2e\]	.	.	4b] 4d/]	.	.
.	.	.	.	.	.	16eJk 16d'\)	.	.	16b'\Jk)	.	.	.	.	.	.	.	.	.	.	.	.	.	.	.
.	.	.	.	.	.	(8.eL 8.c#\	.	.	(8.a\L	.	.	4aao\)	.	.	.	.	.	.	.	.	.	[2a [2c#/	.	.
.	.	.	.	.	.	16eJk 16c#'\)	.	.	16a'\Jk)	.	.	.	.	.	.	.	.	.	.	.	.	.	.	.
.	.	.	4GG#/	.	.	(8.c#\L	.	.	(8.a\L	.	.	8r	.	.	4GG#/	.	.	4r	4ryy	.	.	.	.	.
.	.	.	.	.	.	.	.	.	.	.	.	8aa\	.	.	.	.	.	.	.	.	.	.	.	.
.	.	.	.	.	.	16c#'\Jk)	.	.	16a'\Jk)	.	.	.	.	.	.	.	.	.	.	.	.	.	.	.
=15	=15	=15	=15	=15	=15	=15	=15	=15	=15	=15	=15	=15	=15	=15	=15	=15	=15	=15	=15	=15	=15	=15	=15	=15
*	*	*	*	*	*	*	*	*	*	*	*	*	*	*	*^	*	*	*	*	*	*	*	*	*
*	*	*	*	*	*	*	*	*	*	*	*	*	*	*	*	*	*	*	*	*2\right	*	*	*	*	*
!	!	!	!	!	!	!	!	!	!	!	!	!	!LO:HP:t=poco crescendo	!LO:HP:t=poco crescendo	!	!LO:SIC:s=4ryy	!	!	!	!	!	!	!	!	!
4r	.	.	4FF#/)	<	<	8.c#/L	<	<	8.a\L	<	<	(8ccc#\L	<	<	4FF#/)	4r	.	.	[2.f#/	2.f#yy [2.A\	p <	p <	4a] 4c#/]	.	.
.	.	.	.	.	.	.	.	.	.	.	.	8bb\J)	.	.	.	.	.	.	.	.	.	.	.	.	.
.	.	.	.	.	.	16c#/Jk	.	.	16a\Jk	.	.	.	.	.	.	.	.	.	.	.	.	.	.	.	.
!	!	!	!	!	!	!	!	!	!	!	!	!	!	!	!	!	!	!	!	!	!	!	!LO:MO:mod=(>[2c#/ [2a	!	!
(4F#\	p	p	(4F#\	.	.	8.c#/L	.	.	8.a\L	.	.	(4.aa\	.	.	(>4F# 4FF#/	2ryy	p	p	.	.	.	.	(>[2a [2c#/	<[	<[
.	.	.	.	.	.	16c#/Jk	.	.	16a\Jk	[	.	.	.	.	.	.	.	.	.	.	.	.	.	.	.
4E\)	.	.	4E\)	[	[	8.c#/L	[	[	8.a\L	.	[	.	.	.	4E 4EE/	.	.	.	.	.	.	.	.	.	.
.	.	.	.	.	.	.	.	.	.	.	.	8gg#\)	.	.	.	.	.	.	.	.	.	.	.	.	.
.	.	.	.	.	.	16c#/Jk	.	.	16a\Jk	.	.	.	.	.	.	.	.	.	.	.	[[	[[	.	.	.
*	*	*	*	*	*	*	*	*	*	*	*	*	*	*	*v	*v	*	*	*	*	*	*	*	*	*
=16	=16	=16	=16	=16	=16	=16	=16	=16	=16	=16	=16	=16	=16	=16	=16	=16	=16	=16	=16	=16	=16	=16	=16	=16
*	*	*	*	*	*	*	*	*	*	*	*	*	*	*	*	*	*	*	*	*	*	*^	*	*
2D\	.	.	2D/	.	.	8.c#/L	.	.	8.a\L	.	.	(8ff#\L	.	.	2D 2DD/	.	.	2.f#/_	4A\]	.	.	2.a/]	4c#\]	.	.
.	.	.	.	.	.	.	.	.	.	.	.	8ee\)	.	.	.	.	.	.	.	.	.	.	.	.	.
.	.	.	.	.	.	16c#/Jk	.	.	16a\Jk	.	.	.	.	.	.	.	.	.	.	.	.	.	.	.	.
.	.	.	.	>	>	4B/	>	>	(2a\	>	>	(8dd\	.	>	.	.	.	.	[2B\	>	>	.	(4B\	>	>
.	.	.	.	.	.	.	.	.	.	.	.	8ee\	.	.	.	.	.	.	.	.	.	.	.	.	.
4r	.	.	(4BB/	.	.	[4d\	.	.	.	.	.	8ff#\)	>	.	4BB 4BBB/	.	.	.	.	.	.	.	[4d\	.	.
.	.	.	.	]]	]]	.	]]	]]	.	]]	]]	(8ff#\J	]]	]]	.	.	.	.	.	.	]]	.	.	.	]]
=17	=17	=17	=17	=17	=17	=17	=17	=17	=17	=17	=17	=17	=17	=17	=17	=17	=17	=17	=17	=17	=17	=17	=17	=17	=17
*	*	*	*	*	*	*	*	*	*	*	*	*	*	*	*^	*	*	*	*	*	*	*	*	*	*
*	*	*	*	*	*	*	*	*	*	*	*	*	*	*	*	*2\left	*	*	*	*	*	*	*	*	*	*
!	!	!	!LO:SIC:s=[2.GG#/	!	!	!	!	!	!	!	!	!	!	!	!	!	!	!	!	!	!	!	!	!	!	!
2.r	.	.	[2.GG#/)	pp	pp	8.d\L]	pp	pp	8.f#\L)	pp	pp	8bb\L	pp	pp	[2.GG#/)	2.GG#\	.	.	2f#/]	2.B\_	] pp	pp	4f#/	2.d\]	] pp	pp
.	.	.	.	.	.	.	.	.	.	.	.	8aa\J)	.	.	.	.	.	.	.	.	.	.	.	.	.	.
.	.	.	.	.	.	16d'\Jk	.	.	16f#'\Jk	.	.	.	.	.	.	.	.	.	.	.	.	.	.	.	.	.
.	.	.	.	.	.	8.d\L	.	.	8.b\L	.	.	(4.gg#\	.	.	.	.	.	.	.	.	.	.	[2b/	.	.	.
.	.	.	.	.	.	16d\Jk	.	.	16b\Jk	.	.	.	.	.	.	.	.	.	.	.	.	.	.	.	.	.
.	.	.	.	.	.	8.d\L	.	.	8.b\L	.	.	.	.	.	.	.	.	.	4rff	.	.	.	.	.	.	.
.	.	.	.	.	.	.	.	.	.	.	.	8ff#\)	.	.	.	.	.	.	.	.	.	.	.	.	.	.
.	.	.	.	.	.	16d\Jk	.	.	16b\Jk	.	.	.	.	.	.	.	.	.	.	.	.	.	.	.	.	.
=18	=18	=18	=18	=18	=18	=18	=18	=18	=18	=18	=18	=18	=18	=18	=18	=18	=18	=18	=18	=18	=18	=18	=18	=18	=18	=18
*	*	*	*	*	*	*	*	*	*	*	*	*	*	*	*	*2\right	*	*	*	*	*	*	*	*	*	*
!	!	!	!LO:SIC:s=2GG#/])	!	!	!	!	!	!	!	!	!	!	!	!	!	!	!	!	!	!	!	!	!	!	!
4r	.	.	2GG#/]	.	.	8.c#/L	.	.	8.b\L	.	.	(8ee#X\L	.	.	4GG#/]	(2GG#\	.	.	4rff	2.B\]	.	.	2.b/])	2.c#\)	.	.
.	.	.	.	.	.	.	.	.	.	.	.	8dd#X\	.	.	.	.	.	.	.	.	.	.	.	.	.	.
.	.	.	.	.	.	16c#/Jk	.	.	16b\Jk	.	.	.	.	.	.	.	.	.	.	.	.	.	.	.	.	.
!	!	!	!	!	!	!	!	!	!	!	!	!	!	!	!	!	!	!	!	!	!	!LO:MO:mod=!LO&colon;DY&colon;a	!	!	!	!
!	!	!	!	!	!	!	!	!	!	!	!	!	!	!	!	!	!	!LO:DY:ed=brack:a	!	!	!LO:DY:a	!LO:DY:a	!	!	!	!
(4GG#/	p	p	.	.	.	2c#/	.	.	2b\	.	.	8cc#\)	.	.	(4G#/	.	.	pp	(4e#X/	.	pp	pp	.	.	.	.
.	.	.	.	.	.	.	.	.	.	.	.	(8ee#\	.	.	.	.	.	.	.	.	.	.	.	.	.	.
4EE#X/)	.	.	4EE#X/	.	.	.	.	.	.	.	.	8ff#\	.	.	4E#X/)	4EE#X\)	.	.	4c#/)	.	.	.	.	.	.	.
.	.	.	.	.	.	.	.	.	.	.	.	8gg#\J)	.	.	.	.	.	.	.	.	.	.	.	.	.	.
*	*	*	*	*	*	*	*	*	*	*	*	*	*	*	*v	*v	*	*	*	*	*	*	*v	*v	*	*
*	*	*	*	*	*	*	*	*	*	*	*	*	*	*	*	*	*	*v	*v	*	*	*	*	*
!!LO:LB:g=original
=19	=19	=19	=19	=19	=19	=19	=19	=19	=19	=19	=19	=19	=19	=19	=19	=19	=19	=19	=19	=19	=19	=19	=19
!	!LO:HP:t=cres-cen-do:ext=cd	!LO:HP:t=cres-cen-do:ext=cd	!	!LO:HP:t=cres-cen-do:ext=cd	!LO:HP:t=cres-cen-do:ext=cd	!	!	!	!	!LO:HP:t=cres-cen-do:ext=cd	!LO:HP:t=cres-cen-do:ext=cd	!	!LO:HP:t=cres-cen-do:ext=cd	!LO:HP:t=cres-cen-do:ext=cd	!	!	!	!	!LO:HP:t=cres-cen-do:ext=cd	!LO:HP:t=cres-cen-do:ext=cd	!	!LO:HP:t=cres-cen-do:ext=cd	!LO:HP:t=cres-cen-do:ext=cd
[4FF#/	<	<	[4FF#/	<	<	(8.c#/L	.	.	(8.aL 8.f#\	<	<	4.aa\	<	<	2.F# 2.FF#^>/	.	<	2.f# 2.A^>/	<	<	2.a 2.c#^>/	<	<
!	!	!	!	!	!	!	!LO:HP:t=cres-cen-do:ext=cd	!LO:HP:t=cres-cen-do:ext=cd	!	!	!	!	!	!	!	!	!	!	!	!	!	!	!
.	.	.	.	.	.	16c#'/Jk)	<	<	16aJk 16f#'\)	.	.	.	.	.	.	.	.	.	.	.	.	.	.
8.FF#/L]	.	.	8.FF#/L]	.	.	([4c#/	.	.	([4a [4f#\	.	.	.	.	.	.	.	.	.	.	.	.	.	.
!	!	!	!	!	!	!	!	!	!	!	!	!	!	!	!	!LO:HP:t=cres-cen-do:ext=cd	!LO:HP:t=cres-cen-do:ext=cd	!	!	!	!	!	!
.	.	.	.	.	.	.	.	.	.	.	.	(8ee#X\L	.	.	.	<	.	.	.	.	.	.	.
16F#/Jk	.	.	16F#/Jk	.	.	.	.	.	.	.	.	.	.	.	.	.	.	.	.	.	.	.	.
4F#^\	.	.	4F#^\	.	.	8.c#/L]	.	.	8.a]L 8.f#\]	.	.	8ff#\	.	.	.	.	.	.	.	.	.	.	.
.	.	.	.	.	.	.	.	.	.	.	.	8gg#\J)	.	.	.	.	.	.	.	.	.	.	.
.	.	.	.	.	.	16c#'/Jk)	.	.	16aJk 16f#'\)	.	.	.	.	.	.	.	.	.	.	.	.	.	.
=20	=20	=20	=20	=20	=20	=20	=20	=20	=20	=20	=20	=20	=20	=20	=20	=20	=20	=20	=20	=20	=20	=20	=20
[4EE/	.	.	[4EE/	.	.	(8.c#/L	.	.	(8.aL 8.f#\	.	.	4.aa\	.	.	2.E 2.EE^>/	.	.	2.f# 2.A^>/	.	.	2.a 2.c#^>/	.	.
.	.	.	.	.	.	16c#'/Jk)	.	.	16aJk 16f#'\)	.	.	.	.	.	.	.	.	.	.	.	.	.	.
8.EE/L]	.	.	8.EE/L]	.	.	([4c#/	.	.	([4a [4f#\	.	.	.	.	.	.	.	.	.	.	.	.	.	.
.	.	.	.	.	.	.	.	.	.	.	.	(16e#X/LL	.	.	.	.	.	.	.	.	.	.	.
16E/Jk	.	.	16E/Jk	.	.	.	.	.	.	.	.	16f#/JJ	.	.	.	.	.	.	.	.	.	.	.
!LO:SIC:s=4E^\	!	!	!	!	!	!	!	!	!	!	!	!	!	!	!	!	!	!	!	!	!	!	!
4E\	.	.	4E^\	.	.	8.c#/L]	.	.	8.a]L 8.f#\]	.	.	16a\LL	.	.	.	.	.	.	.	.	.	.	.
.	.	.	.	.	.	.	.	.	.	.	.	16cc#\	.	.	.	.	.	.	.	.	.	.	.
.	.	.	.	.	.	.	.	.	.	.	.	16ff#\	.	.	.	.	.	.	.	.	.	.	.
.	.	.	.	.	.	16c#'/Jk)	.	.	16aJk 16f#'\)	.	.	16gg#\JJ)	[[	[[	.	.	.	.	.	.	.	.	.
=21	=21	=21	=21	=21	=21	=21	=21	=21	=21	=21	=21	=21	=21	=21	=21	=21	=21	=21	=21	=21	=21	=21	=21
!	!	!	!LO:SIC:s=([4DD/	!	!	!	!	!	!	!	!	!	!	!	!LO:SIC:s=(y([2DD^>/ [2D	!	!	!	!	!	!	!	!
([4D/	.	.	[4DD/	.	.	(8.d\L	.	.	(8.aL 8.f#\	.	.	4.aa\	.	.	([2D ([2DD^>/	.	[[	[2.f# [2.A^>/	[[	[[	[2.a [2.d^>/	[[	[[
.	.	.	.	.	.	16d'\Jk)	.	.	16aJk 16f#'\)	.	.	.	.	.	.	.	.	.	.	.	.	.	.
8.D/L]	.	.	8.DD/L]	.	.	8.d\L	.	.	8.aL 8.f#\	.	.	.	.	.	.	.	.	.	.	.	.	.	.
.	.	.	.	.	.	.	.	.	.	.	.	(16A/LL	.	.	.	[[	.	.	.	.	.	.	.
!	!	!	!LO:SIC:s=16D')/Jk	!	!	!	!	!	!	!	!	!	!	!	!	!	!	!	!	!	!	!	!
16D'/Jk)	.	[	16D/Jk	[	[	16d\Jk	[	[	16aJk 16f#\	[	[	16d/JJ	.	.	.	.	.	.	.	.	.	.	.
!	!	!	!	!	!	!	!	!	!	!	!	!LO:TUP:a	!	!	!	!	!	!	!	!	!	!	!
(8.D/L	[[	.	(8.D/L	.	.	8.d\L	.	.	8.aL 8.f#\	.	.	24f#\LL	<	<	8.D]L 8.DD/]	.	.	.	.	.	.	.	.
.	.	.	.	.	.	.	.	.	.	.	.	24g#\	.	.	.	.	.	.	.	.	.	.	.
.	.	.	.	.	.	.	.	.	.	.	.	24a\	.	.	.	.	.	.	.	.	.	.	.
.	.	.	.	.	.	.	.	.	.	.	.	24dd\	.	.	.	.	.	.	.	.	.	.	.
.	.	.	.	.	.	.	.	.	.	.	.	24ff#\	[[	.	.	.	.	.	.	.	.	.	.
!	!	!	!LO:SIC:s=16C#'/Jk)	!	!	!	!	!	!	!	!	!	!	!	!	!	!	!	!	!	!	!	!
16C#'/Jk)	.	.	16C#/Jk)	.	.	16d\Jk	.	.	16aJk 16f#\	.	.	.	.	.	16C#Jk 16CC#/))	.	.	.	.	.	.	.	.
.	.	.	.	.	.	.	.	.	.	.	.	24aa\JJ)	.	[[	.	.	.	.	.	.	.	.	.
=22	=22	=22	=22	=22	=22	=22	=22	=22	=22	=22	=22	=22	=22	=22	=22	=22	=22	=22	=22	=22	=22	=22	=22
8BB/	f	f	8.BB\L	f	f	8.d\L	f	f	8.aL 8.f#\	f	f	4.aa\	f	f	4BB 4BBB/	.	.	4f#] 4A/]	.	.	4a] 4d/]	.	.
8r	.	.	.	.	.	.	.	.	.	.	.	.	.	.	.	.	.	.	.	.	.	.	.
.	.	.	16B\Jk	.	.	16d\Jk	.	.	16aJk 16f#\	.	.	.	.	.	.	.	.	.	.	.	.	.	.
!	!	!	!	!LO:HP:t=dimin	!LO:HP:t=dim.	!	!LO:HP:t=diminuen	!LO:HP:t=dim.	!LO:SIC:s=((y2f#^\ 2a	!LO:HP:t=dimin	!LO:HP:t=dim.	!	!	!	!	!	!	!	!	!	!	!	!
4r	.	.	[2B^\	>	>	[2d^\	>	>	(2a (2f#^\	>	>	.	.	.	4r	.	.	4r	.	.	4r	.	.
!	!	!	!	!	!	!	!	!	!	!	!	!	!LO:HP:t=diminuendo	!LO:HP:t=dim.	!	!	!	!	!	!	!	!	!
.	.	.	.	.	.	.	.	.	.	.	.	(8aa\L	>	>	.	.	.	.	.	.	.	.	.
4r	.	.	.	.	.	.	.	.	.	.	.	8gg#\	.	.	4r	.	.	4r	.	.	4r	.	.
.	.	.	.	.	.	.	.	.	.	.	.	8ff#\J)	.	.	.	.	.	.	.	.	.	.	.
=23	=23	=23	=23	=23	=23	=23	=23	=23	=23	=23	=23	=23	=23	=23	=23	=23	=23	=23	=23	=23	=23	=23	=23
*	*	*	*	*	*	*	*	*	*	*	*	*	*	*	*	*	*	*	*	*	*^	*	*
2.r	.	.	4B\]	pp	pp	8.d\L]	pp	pp	8.bL 8.g#\))	pp	pp	4.ee#X\	p	p	4r	.	.	4r	.	.	4r	4ryy	.	.
.	.	.	.	.	.	16d\Jk	.	.	16bJk 16g#\	.	.	.	.	.	.	.	.	.	.	.	.	.	.	.
.	.	.	(4C#/	.	.	8.d\L	.	.	8.bL 8.g#\	.	.	.	.	.	4r	.	.	4r	.	.	4r	4ryy	.	.
.	.	.	.	.	.	.	.	.	.	.	.	((8gg#\L	.	.	.	.	.	.	.	.	.	.	.	.
.	.	.	.	.	.	16c#\Jk	.	.	16bJk 16g#\	.	.	.	.	.	.	.	.	.	.	.	.	.	.	.
!	!	!	!	!	!	!	!	!	!	!	!	!	!	!	!	!	!	!LO:TX:t=P:problem:brak początku łuku	!	!	!	!	!	!
!	!	!	!	!	!	!	!	!	!	!	!	!	!	!	!LO:TX:a:t=I	!	!	!LO:TX:a:t=I	!	!	!	!	!	!
.	.	.	4E#X\)	.	.	8.c#\L	.	.	8.bL 8.g#\	.	.	8ccc#\)	.	.	(4E#X\	pp	pp	([4c#/	pp	pp	(4b/	([4g#\	pp	pp
.	.	.	.	.	.	.	.	.	.	.	.	8ccc#'\J)	.	.	.	.	.	.	.	.	.	.	.	.
.	.	.	.	.	.	16c#\Jk	.	.	16bJk 16g#\	.	.	.	.	.	.	.	.	.	.	.	.	.	.	.
=24	=24	=24	=24	=24	=24	=24	=24	=24	=24	=24	=24	=24	=24	=24	=24	=24	=24	=24	=24	=24	=24	=24	=24	=24
2.r	.	.	(2F#\	.	.	8.c#/L	.	.	8.aL 8.g#\	.	.	(4ccc#\	.	.	2F#\	.	.	2.c#/]	.	.	2.a/	4g#\]	.	.
.	.	.	.	.	.	16c#/Jk	.	.	16aJk 16g#\	.	.	.	.	.	.	.	.	.	.	.	.	.	.	.
.	.	.	.	.	.	8.c#/L	.	.	8.aL 8.f#\	.	.	4aa\)	.	.	.	.	.	.	.	.	.	2f#\	.	.
.	.	.	.	.	.	16c#/Jk	.	.	16aJk 16f#\	.	.	.	.	.	.	.	.	.	.	.	.	.	.	.
.	.	.	4En\)	.	.	8.c#/L	.	.	8.aL 8.f#\	.	.	8r	.	.	4En\	.	.	.	.	.	.	.	.	.
.	.	.	.	.	.	.	.	.	.	.	.	8ccc#\	.	.	.	.	.	.	.	.	.	.	.	.
.	.	.	.	.	.	16c#/Jk	.	.	16aJk 16f#\	.	.	.	.	.	.	.	.	.	.	.	.	.	.	.
*	*	*	*	*	*	*	*	*	*	*	*	*	*	*	*	*	*	*	*	*	*v	*v	*	*
!!LO:PB:g=original
=25	=25	=25	=25	=25	=25	=25	=25	=25	=25	=25	=25	=25	=25	=25	=25	=25	=25	=25	=25	=25	=25	=25	=25
!	!	!	!	!	!	!	!	!	!	!	!	!	!	!	!LO:TX:t=P:problem:dodtakowy łuk na początku	!	!	!	!	!	!	!	!
2.r	.	.	[2.D/	.	.	8.B/L	.	.	8.aL 8.f#\	.	.	4.ccc#\	.	.	[>2.D/	.	.	[2.B/	.	.	2.a 2.f#/	.	.
.	.	.	.	.	.	16B/Jk	.	.	16aJk 16f#\	.	.	.	>	>	.	.	.	.	.	.	.	.	.
*	*	*	*	*	*	*2\right	*	*	*2\left	*	*	*	*	*	*	*	*	*	*	*	*	*	*
.	.	.	.	.	.	([2f# [2B\	.	.	(2a ((2f#\	.	.	.	.	.	.	.	.	.	.	.	.	.	.
.	.	.	.	.	.	.	.	.	.	.	.	(8bb\L	.	.	.	.	.	.	.	.	.	.	.
.	.	.	.	.	.	.	.	.	.	.	.	8aa\	.	.	.	.	.	.	.	.	.	.	.
.	.	.	.	.	.	.	.	.	.	.	.	8gg#\J)	]	]	.	.	.	.	.	.	.	.	.
=26	=26	=26	=26	=26	=26	=26	=26	=26	=26	=26	=26	=26	=26	=26	=26	=26	=26	=26	=26	=26	=26	=26	=26
!	!	!	!	!	!	!	!	!	!	!	!	!	!	!	!LO:TX:b:rj:t=II:mod=	!	!	!	!	!	!	!	!
2.D/	.	.	2.D/]	.	.	8.f#]L 8.B\]	.	.	8.g#\L))	.	.	[4bb\	.	.	(2.D] 2.DD/)	p	p	2.B/_	.	.	2.g# 2.f#/))	.	.
.	.	.	.	.	.	16f#'\Jk)	.	.	16g#'\Jk)	.	.	.	.	.	.	.	.	.	.	.	.	.	.
.	.	.	.	.	.	8.f#\L	.	.	8.g#\L	.	.	8bb\]	.	.	.	.	.	.	.	.	.	.	.
.	.	.	.	.	.	.	.	.	.	.	.	8r	.	.	.	.	.	.	.	.	.	.	.
.	.	.	.	.	.	16f#\Jk	.	.	16g#\Jk	.	.	.	.	.	.	.	.	.	.	.	.	.	.
.	.	.	.	.	.	8.f#\L	.	.	8.g#\L	.	.	8r	.	.	.	.	.	.	.	.	.	.	.
.	.	.	.	.	.	.	.	.	.	.	.	8bb\	.	.	.	.	.	.	.	.	.	.	.
.	.	.	.	.	.	16f#\Jk	.	.	16g#\Jk	.	.	.	.	.	.	.	.	.	.	.	.	.	.
=27	=27	=27	=27	=27	=27	=27	=27	=27	=27	=27	=27	=27	=27	=27	=27	=27	=27	=27	=27	=27	=27	=27	=27
!	!	!	!	!	!	!	!	!	!	!	!	!	!	!	!	!	!	!	!	!	!LO:MO:mod=(>(<2.e#X/ 2.g#	!	!
[2.C#/	.	.	[2.C#/	.	.	8.e#X\L	.	.	8.g#\L	.	.	4.bb\	.	.	[2.C# [2.CC#/	.	.	2.B/])	.	.	(>2.g# (<2.e#X/	.	.
.	.	.	.	.	.	16e#\Jk	.	.	16g#\Jk	.	.	.	.	.	.	.	.	.	.	.	.	.	.
*	*	*	*	*	*	*2\left	*	*	*	*	*	*	*	*	*	*	*	*	*	*	*	*	*
!	!	!	!	!	!	!LO:SIC:s=((2e#\	!	!	!	!	!	!	!	!	!	!	!	!	!	!	!	!	!
.	.	.	.	.	.	(2e#\	.	.	((2g#\	.	.	.	.	.	.	.	.	.	.	.	.	.	.
.	.	.	.	.	.	.	.	.	.	.	.	(8gg#\L	.	.	.	.	.	.	.	.	.	.	.
.	.	.	.	.	.	.	.	.	.	.	.	8ee#X\	.	.	.	.	.	.	.	.	.	.	.
.	.	.	.	.	.	.	.	.	.	.	.	8cc#\J)	.	.	.	.	.	.	.	.	.	.	.
=28	=28	=28	=28	=28	=28	=28	=28	=28	=28	=28	=28	=28	=28	=28	=28	=28	=28	=28	=28	=28	=28	=28	=28
*	*	*	*	*	*	*	*	*	*	*	*	*	*	*	*	*	*	*^	*	*	*^	*	*
*	*	*	*	*	*	*	*	*	*	*	*	*	*	*	*	*	*	*	*2\left	*	*	*	*2\left	*	*
!	!	!	!	!	!	!	!	!	!	!	!	!	!	!	!	!	!	!LO:TX:a:t=a 2:mod=	!	!	!	!	!	!	!
4C#/]	.	.	4C#/]	.	.	8.f#\L)	.	.	8.f#\L)	.	.	[4aa\	.	.	4C#] 4CC#/])	.	.	[2.A/	[2.A\	p	p	2.f#/	2f#\	.	.
!	!	!	!	!	!	!LO:SIC:s=16f#'\Jk)	!	!	!	!	!	!	!	!	!	!	!	!	!	!	!	!	!	!	!
.	.	.	.	.	.	16f#\Jk	.	.	16f#'\Jk)	.	.	.	.	.	.	.	.	.	.	.	.	.	.	.	.
!	!	!	!	!	!	!	!	!	!	!	!	!	!	!	!LO:SIC:s=(y(((4DD/ (y<4D	!	!	!	!	!	!	!	!	!	!
(4D/	.	.	(4D/	.	.	8.f#\L	.	.	8.f#\L	.	.	8aa\]	.	.	((<4D ((<(4DD/	.	.	.	.	.	.	.	.	.	.
.	.	.	.	.	.	.	.	.	.	.	.	8r	.	.	.	.	.	.	.	.	.	.	.	.	.
.	.	.	.	.	.	16f#\Jk	.	.	16f#\Jk	.	.	.	.	.	.	.	.	.	.	.	.	.	.	.	.
4C#/)	.	.	4C#/)	.	.	8.en\L	.	.	8.f#\L	.	.	8r	.	.	4C# 4CC#/)))	.	.	.	.	.	.	.	4en\	.	.
.	.	.	.	.	.	.	.	.	.	.	.	8aa\	.	.	.	.	.	.	.	.	.	.	.	.	.
.	.	.	.	.	.	16e\Jk	.	.	16f#\Jk	.	.	.	.	.	.	.	.	.	.	.	.	.	.	.	.
=29	=29	=29	=29	=29	=29	=29	=29	=29	=29	=29	=29	=29	=29	=29	=29	=29	=29	=29	=29	=29	=29	=29	=29	=29	=29
!	!	!	!	!	!	!	!	!	!	!	!	!	!LO:HP:t=poco crescendo	!LO:HP:t=poco crescendo	!	!	!	!	!	!	!	!	!	!	!
2.BB^>/	.	.	2.BB^>/	.	.	8.d^\L	.	.	8.f#^\L	.	.	4.aa^\	<	<	2.BB 2.BBB/))	.	.	2.A/]	2.A\]	.	.	2.f#/)	2.d\)	.	.
.	.	.	.	.	.	16d\Jk	.	.	16f#\Jk	.	.	.	.	.	.	.	.	.	.	.	.	.	.	.	.
.	.	.	.	.	.	([2d\	.	.	((2f#\	.	.	.	.	.	.	.	.	.	.	.	.	.	.	.	.
.	.	.	.	.	.	.	.	.	.	.	.	(8ff#\L	.	.	.	.	.	.	.	.	.	.	.	.	.
.	.	.	.	.	.	.	.	.	.	.	.	8dd\	.	.	.	.	.	.	.	.	.	.	.	.	.
.	.	.	.	.	.	.	.	.	.	.	.	8b\J)	.	.	.	.	.	.	.	.	.	.	.	.	.
=30	=30	=30	=30	=30	=30	=30	=30	=30	=30	=30	=30	=30	=30	=30	=30	=30	=30	=30	=30	=30	=30	=30	=30	=30	=30
*	*	*	*	*	*	*	*	*	*	*	*	*	*	*	*^	*	*	*	*	*	*	*	*	*	*
*	*	*	*	*	*	*	*	*	*	*	*	*	*	*	*	*2\left	*	*	*	*	*	*	*	*	*	*
(2EE/	.	.	(2EE/	.	.	8.d\L]	.	.	8.e\L)	.	.	(4aa\	.	.	(2EE/	(2EE\	.	.	(2G#X/	(2G#X\	.	.	[2.e/	[2.d\	.	.
.	.	.	.	.	.	16d'\Jk)	.	.	16e'\Jk)	.	.	.	.	.	.	.	.	.	.	.	.	.	.	.	.	.
.	.	.	.	.	.	8.d\L	.	.	8.e\L	.	.	4gg#\)	.	.	.	.	.	.	.	.	.	.	.	.	.	.
.	.	.	.	.	.	16d\Jk	.	.	16e\Jk	.	.	.	.	.	.	.	.	.	.	.	.	.	.	.	.	.
4FF#/)	.	.	4FF#/)	.	.	8.d\L	.	.	8.e\L	.	.	(8gg#^\L	.	.	4FF#/	4FF#\	.	.	4A/	4A\	.	.	.	.	.	.
.	.	.	.	.	.	.	.	.	.	.	.	8ff#\J)	.	.	.	.	.	.	.	.	.	.	.	.	.	.
.	.	.	.	.	.	16d\Jk	.	.	16e\Jk	.	.	.	.	.	.	.	.	.	.	.	.	.	.	.	.	.
!!LO:LB:g=original
=31	=31	=31	=31	=31	=31	=31	=31	=31	=31	=31	=31	=31	=31	=31	=31	=31	=31	=31	=31	=31	=31	=31	=31	=31	=31	=31
!	!	!	!	!	!	!	!	!	!	!	!	!LO:TX:b:i:t=molto espressivo	!	!	!	!	!	!	!	!	!	!	!	!	!	!
(2GG#/	.	.	(2GG#/	.	.	8.d\L	.	.	8.e\L	.	.	(4ff#\	.	.	2GG#/	2GG#\	.	.	2B/	2B\	.	.	2.e/_	2.d\]	.	.
!	!	!	!	!	!	!	!	!	!	!LO:HP:t=cres-cen-do:ext=cd	!LO:HP:t=cres-cen-do:ext=cd	!	!	!	!	!	!	!	!	!	!	!	!	!	!	!
.	.	.	.	.	.	16d\Jk	.	.	16e\Jk	<	<	.	.	.	.	.	.	.	.	.	.	.	.	.	.	.
.	.	.	.	.	.	8.d\L	.	.	8.e\L	.	.	8ee\)	.	.	.	.	.	.	.	.	.	.	.	.	.	.
!	!	!	!	!	!	!	!	!	!	!	!	!	!	!	!	!	!LO:HP:a:t=cres-cen-do:ext=cd	!LO:HP:a:t=cres-cen-do:ext=cd	!	!	!	!	!	!	!	!
.	.	.	.	.	.	.	.	.	.	.	.	(16e/LL	.	.	.	.	<	<	.	.	.	.	.	.	.	.
!	!	!	!	!	!	!	!LO:HP:t=cres-cen-do:ext=cd	!LO:HP:t=cres-cen-do:ext=cd	!	!	!	!	!	!	!	!	!	!	!	!	!	!	!	!	!	!
.	.	.	.	.	.	16d\Jk	<	<	16e\Jk	.	.	16d#X/JJ	.	.	.	.	.	.	.	.	.	.	.	.	.	.
!	!LO:HP:t=cres-cen-do:ext=cd	!LO:HP:t=cres-cen-do:ext=cd	!	!LO:HP:t=cres-cen-do:ext=cd	!LO:HP:t=cres-cen-do:ext=cd	!	!	!	!	!	!	!	!	!	!	!	!	!	!	!	!LO:HP:t=cres-cen-do:ext=cd	!LO:HP:t=cres-cen-do:ext=cd	!	!	!LO:HP:t=cres-cen-do:ext=cd	!LO:HP:t=cres-cen-do:ext=cd
4AA/)	.	.	4AA/)	<	<	8.d\L	.	.	8.e\L	.	.	16e/LL	.	.	4AA/	4AA\	.	.	4A/	4A\	<	<	.	.	<	<
.	.	.	.	.	.	.	.	.	.	.	.	16a/	.	.	.	.	.	.	.	.	.	.	.	.	.	.
.	<	<	.	.	.	.	.	.	.	.	.	16b/	.	.	.	.	.	.	.	.	.	.	.	.	.	.
!	!	!	!	!	!	!	!	!	!	!	!	!	!LO:HP:t=cres-cen-do:ext=cd	!LO:HP:t=cres-cen-do:ext=cd	!	!	!	!	!	!	!	!	!	!	!	!
.	.	.	.	.	.	16d\Jk	.	.	16e\Jk	.	.	16ee/JJ)	<	<	.	.	.	.	.	.	.	.	.	.	.	.
=32	=32	=32	=32	=32	=32	=32	=32	=32	=32	=32	=32	=32	=32	=32	=32	=32	=32	=32	=32	=32	=32	=32	=32	=32	=32	=32
4BB/	.	.	4BB/	.	.	8.d\L	.	.	8.e\L	.	.	4.ee\	.	.	4BB/)	4BB\)	.	.	4G#/)	4G#X\)	.	.	2.e/_	(2d\	.	.
.	.	.	.	.	.	16d\Jk	.	.	16e\Jk	.	.	.	.	.	.	.	.	.	.	.	.	.	.	.	.	.
(4BB-X/	.	.	(4BB-X/	.	.	8.d\L	.	.	8.e\L	.	.	.	.	.	(4BB-X/	(4BB-\	.	.	([2G/	([2G\	.	.	.	.	.	.
.	.	.	.	.	.	.	.	.	.	.	.	(8ee\L	.	.	.	.	.	.	.	.	.	.	.	.	.	.
.	.	.	.	.	.	16d\Jk	.	.	16e\Jk	.	.	.	.	.	.	.	.	.	.	.	.	.	.	.	.	.
4AA/)	.	.	4AA/)	.	.	([4c#\	.	.	([4e\	.	.	8ff#\	.	.	4AA/)	4AA\)	.	.	.	.	.	.	.	[4c#\	.	.
.	.	.	.	.	.	.	.	.	.	.	.	8cc#\J)	.	.	.	.	.	.	.	.	.	.	.	.	.	.
*	*	*	*	*	*	*	*	*	*	*	*	*	*	*	*v	*v	*	*	*	*	*	*	*	*	*	*
=33	=33	=33	=33	=33	=33	=33	=33	=33	=33	=33	=33	=33	=33	=33	=33	=33	=33	=33	=33	=33	=33	=33	=33	=33	=33
*2\left	*	*	*2\left	*	*	*	*	*	*	*	*	*	*	*	*	*	*	*	*	*	*	*	*	*	*
2.D\	.	.	2.D\	.	.	8.c#\L]	.	.	8.e\L]	.	.	4ee\	.	.	[2.D [2.DD/	.	.	4G/]	4G\]	.	.	4e/]	4c#\]	.	.
.	.	.	.	.	.	16c#'\Jk)	.	.	16e'\Jk)	.	.	.	.	.	.	.	.	.	.	.	.	.	.	.	.
.	.	.	.	.	.	8.d\L	.	.	8.f#\L	.	.	(4.dd\	.	.	.	.	.	[2F#/	[2F#\	.	.	[2f#/	[2d\	.	.
.	.	.	.	.	.	16d\Jk	.	.	16f#\Jk	.	.	.	.	.	.	.	.	.	.	.	.	.	.	.	.
.	.	.	.	.	.	8.d\L	.	.	8.f#\L	.	.	.	.	.	.	.	.	.	.	.	.	.	.	.	.
.	.	.	.	.	.	.	.	.	.	.	.	8cc#\)	[[	[[	.	.	.	.	.	.	.	.	.	.	.
.	.	.	.	.	.	16d\Jk	.	.	16f#\Jk	.	.	.	.	.	.	.	.	.	.	.	.	.	.	.	.
=34	=34	=34	=34	=34	=34	=34	=34	=34	=34	=34	=34	=34	=34	=34	=34	=34	=34	=34	=34	=34	=34	=34	=34	=34	=34
!	!	!	!	!	!	!	!	!	!	!	!	!LO:TX:a:t=divisi:mod=	!	!	!	!	!	!	!	!	!	!	!	!	!
2.D\	.	.	2.D\	.	.	8.d\L	.	.	8.f#\L	.	.	4.b\	f	f	2.D] 2.DD/]	.	.	2F#/])	2F#\])	[[	[[	2.f#/_	2.d\_	.	.
.	.	.	.	.	.	16d\Jk	.	.	16f#\Jk	.	.	.	.	.	.	.	.	.	.	.	.	.	.	.	.
.	.	.	.	.	.	8.d\L	.	.	8.f#\L	.	.	.	.	.	.	.	.	.	.	.	.	.	.	.	.
!	!	!	!	!	!	!	!	!	!	!	!	!LO:TX:a:t= :mod=div.	!	!	!	!	!	!	!	!	!	!	!	!	!
.	.	.	.	.	.	.	.	.	.	.	.	(8bbL 8b\	<	<	.	.	.	.	.	.	.	.	.	.	.
.	.	.	.	.	.	16d\Jk	.	.	16f#\Jk	.	.	.	.	.	.	.	.	.	.	.	.	.	.	.	.
.	.	.	.	.	.	8.d\L	.	.	8.f#\L	.	.	8ccc# 8cc#\	.	.	.	.	.	4r	4ryy	.	.	.	.	.	.
.	.	.	.	.	.	.	.	.	.	.	.	8bbJ 8b\)	[[	[[	.	.	.	.	.	.	.	.	.	.	.
.	[[	[[	.	[[	[[	16d\Jk	[	[	16f#\Jk	[[	[[	.	.	.	.	[[	[[	.	.	.	.	.	.	.	.
*	*	*	*	*	*	*	*	*	*	*	*	*	*	*	*	*	*	*v	*v	*	*	*	*	*	*
=35	=35	=35	=35	=35	=35	=35	=35	=35	=35	=35	=35	=35	=35	=35	=35	=35	=35	=35	=35	=35	=35	=35	=35	=35
2.E^\	.	.	2.E^\	.	.	8.d\L	.	.	8.f#\L	.	.	4bb 4b\	.	.	2.E 2.EE^>/	f	f	2.r	.	.	4f#/]	4d\])	[[	[[
.	.	.	.	.	.	16d\Jk	.	.	16f#\Jk	.	.	.	.	.	.	.	.	.	.	.	.	.	.	.
.	.	.	.	.	.	8.c#\L	.	.	8.e\L	.	.	(4.aa (4.a\	.	.	.	.	.	.	.	.	([2e^>/ ([2c#/	2ryy	.	f
.	.	.	.	.	.	16c#\Jk	.	.	16e\Jk	.	.	.	.	.	.	.	.	.	.	.	.	.	.	.
.	.	.	.	.	.	4c#\	.	.	4e\	.	.	.	.	.	.	.	.	.	.	.	.	.	.	.
.	.	.	.	.	.	.	.	.	.	.	.	8gg# 8g#\))	.	.	.	.	.	.	.	.	.	.	f	.
*	*	*	*	*	*	*	*	*	*	*	*	*	*	*	*	*	*	*	*	*	*v	*v	*	*
=36	=36	=36	=36	=36	=36	=36	=36	=36	=36	=36	=36	=36	=36	=36	=36	=36	=36	=36	=36	=36	=36	=36	=36
!!!OMD:
!!!OMD-mod: Poco animato
!	!	!	!	!	!	!LO:TX:a:B:t=Poco animato:mod=	!	!	!LO:TX:a:B:t=Poco animato:mod=	!	!	!	!	!	!	!	!	!	!	!	!LO:TX:a:B:t=Poco animato:mod=	!	!
2.E^\	f	f	4EE/	f	f	8.c#^\L	f	f	8.e^\L	f	f	4ff# 4f#^\	ff	ff	2.E 2.EE^>/	.	.	4r	.	.	4e] 4c#/]	.	.
.	.	.	.	.	.	16c#\Jk	.	.	16e\Jk	.	.	.	.	.	.	.	.	.	.	.	.	.	.
.	.	.	4.E^\	.	.	8.B/L	.	.	8.d\L	.	.	4gg# 4g#^\	.	.	.	.	.	4.e 4.E^>/	f	f	4d 4B/))	.	.
.	.	.	.	.	.	16B/Jk	.	.	16d\Jk	.	.	.	.	.	.	.	.	.	.	.	.	.	.
.	.	.	.	.	.	8.A/L	.	.	8.c#\L	.	.	[4aa [4a^\	.	.	.	.	.	.	.	.	4c# 4A/	.	.
.	.	.	8EE/	.	.	.	.	.	.	.	.	.	.	.	.	.	.	8e 8E/	.	.	.	.	.
.	.	.	.	.	.	16A/Jk	.	.	16c#\Jk	.	.	.	.	.	.	.	.	.	.	.	.	.	.
!!LO:LB:g=original
=37	=37	=37	=37	=37	=37	=37	=37	=37	=37	=37	=37	=37	=37	=37	=37	=37	=37	=37	=37	=37	=37	=37	=37
*	*	*	*	*	*	*	*	*	*	*	*	*	*	*	*	*	*	*	*	*	*^	*	*
*2\right	*	*	*	*	*	*	*	*	*	*	*	*	*	*	*	*	*	*	*	*	*	*	*	*
!	!	!	!	!	!	!	!	!	!	!	!	!	!	!	!	!	!	!	!	!	!	!LO:SIC:s=(4e^\	!	!
2.E^\	.	.	4EE/	.	.	8.e^\L	.	.	8.g#^\L	.	.	4aa] 4a\]	.	.	2.E 2.EE^>/	.	.	4e 4E/	.	.	(4g#^/	(4e\	.	.
.	.	.	.	.	.	16e\Jk	.	.	16g#\Jk	.	.	.	.	.	.	.	.	.	.	.	.	.	.	.
.	.	.	4.E^\	.	.	8.d\L	.	.	8.f#\L	.	.	4bb 4b^\	.	.	.	.	.	4r	.	.	4f#/	4d\	.	.
.	.	.	.	.	.	16d\Jk	.	.	16f#\Jk	.	.	.	.	.	.	.	.	.	.	.	.	.	.	.
.	.	.	.	.	.	8.c#\L	.	.	8.e\L	.	.	[4ccc# [4cc#^\	.	.	.	.	.	8.eL 8.E^/	.	.	4e/)	4c#\)	.	.
.	.	.	8EE/	.	.	.	.	.	.	.	.	.	.	.	.	.	.	.	.	.	.	.	.	.
.	.	.	.	.	.	16c#\Jk	.	.	16e\Jk	.	.	.	.	.	.	.	.	16eJk 16E/	.	.	.	.	.	.
=38	=38	=38	=38	=38	=38	=38	=38	=38	=38	=38	=38	=38	=38	=38	=38	=38	=38	=38	=38	=38	=38	=38	=38	=38
!	!	!	!	!	!	!	!	!	!	!	!	!	!	!	!	!	!	!	!	!	!	!LO:SIC:s=(4g#^\	!	!
2.E^\	.	.	4EE/	.	.	8.g#^\L	.	.	8.b^\L	.	.	4ccc#] 4cc#\]	.	.	2.E 2.EE^>/	.	.	4e 4E/	.	.	(4b^/	(4g#\	.	.
.	.	.	.	.	.	16g#\Jk	.	.	16b\Jk	.	.	.	.	.	.	.	.	.	.	.	.	.	.	.
.	.	.	4.E^\	.	.	8.f#\L	.	.	8.a\L	.	.	4ddd 4dd^\	.	.	.	.	.	4.e 4.E^>/	.	.	4a/	4f#\	.	.
.	.	.	.	.	.	16f#\Jk	.	.	16a\Jk	.	.	.	.	.	.	.	.	.	.	.	.	.	.	.
.	.	.	.	.	.	8.e\L	.	.	8.g#\L	.	.	4eee 4ee^\	.	.	.	.	.	.	.	.	4g#/)	4e\)	.	.
.	.	.	8EE/	.	.	.	.	.	.	.	.	.	.	.	.	.	.	8e 8E/	.	.	.	.	.	.
.	.	.	.	.	.	16e\Jk	.	.	16g#\Jk	.	.	.	.	.	.	.	.	.	.	.	.	.	.	.
=39	=39	=39	=39	=39	=39	=39	=39	=39	=39	=39	=39	=39	=39	=39	=39	=39	=39	=39	=39	=39	=39	=39	=39	=39
*	*	*	*	*	*	*	*	*	*	*	*	*	*	*	*	*	*	*^	*	*	*	*	*	*
*	*	*	*2\right	*	*	*	*	*	*	*	*	*	*	*	*	*	*	*	*	*	*	*	*	*	*
!!LO:TX:a:i:t= :mod=rit.
!LO:MO:mod=!null:null	!	!	!	!	!	!	!	!	!	!	!	!	!	!	!	!	!	!	!	!	!	!	!	!	!
!LO:N:vis=2	!LO:HP:b:t=dimin e rit	!LO:HP:b:t=dim.	!	!LO:HP:b:t=dimin e rit	!LO:HP:b:t=dim.	!	!LO:HP:b:t=dimin e rit	!LO:HP:b:t=dim.	!	!LO:HP:b:t=dimin e riten	!LO:HP:b:t=dim.	!	!LO:HP:b:t=dimin e riten	!LO:HP:b:t=dim.	!	!	!LO:HP:t=[dim.]	!	!LO:SIC:s=2.d^\	!LO:HP:t=dimin e rit	!LO:HP:t=dim.	!	!LO:SIC:s=(4f#\	!LO:HP:t=dimin e rit	!LO:HP:t=dim.
2.E^\	>	>	2.E^\	>	>	8.d^\L	>	>	8.aL 8.f#^\	>	>	4fff# 4ff#^\	>	>	2.E 2.EE^>/	.	>	2.d^/	2.d\	>	>	(4a/	4f#\	>	>
.	.	.	.	.	.	16d\Jk	.	.	16aJk 16f#\	.	.	.	.	.	.	.	.	.	.	.	.	.	.	.	.
.	.	.	.	.	.	8.d\L	.	.	8.g#\L	.	.	(4.bb (4.b^\	.	.	.	.	.	.	.	.	.	2g#/	[2e\	.	.
.	.	.	.	.	.	16d\Jk	.	.	16g#\Jk	.	.	.	.	.	.	.	.	.	.	.	.	.	.	.	.
.	.	.	.	.	.	4d\	.	.	4g#\	.	.	.	.	.	.	.	.	.	.	.	.	.	.	.	.
.	.	.	.	.	.	.	.	.	.	.	.	8ccc# 8cc#\))	.	.	.	.	.	.	.	.	.	.	.	.	.
*	*	*	*	*	*	*	*	*	*	*	*	*	*	*	*	*	*	*v	*v	*	*	*	*	*	*
=40	=40	=40	=40	=40	=40	=40	=40	=40	=40	=40	=40	=40	=40	=40	=40	=40	=40	=40	=40	=40	=40	=40	=40	=40
*	*	*	*	*	*	*	*	*	*	*	*	*	*	*	*^	*	*	*	*	*	*	*	*	*
!	!	!	!LO:TX:a:B:t=Tempo Io:mod=	!	!	!	!	!	!	!	!	!	!	!	!	!LO:SIC:s=(2AA\	!LO:DY:a	!LO:DY:a	!	!	!	!LO:TX:a:B:t=Tempo Io:mod=	!	!	!
!	!	!	!	!	!	!	!	!	!	!	!	!	!	!	!	!	!	!	!	!	!	!LO:MO:mod=[<2.eyy/ [2.a	!LO:MO:mod=2.e_	!	!
(2AA^>/	fp	fp	(2AA^>/	fp	fp	8.c#^\L	.	.	8.a^\L	.	.	[4ccc# [4cc#\	.	.	(2AA/	2AA\	pp	pp	[2.c# [2.A/	pp	pp	[2.a [<2.e/	2.e]	pp	pp
.	.	.	.	.	.	16c#\Jk	.	.	16a\Jk	.	.	.	.	.	.	.	.	.	.	.	.	.	.	.	.
!!LO:TX:a:B:t= :mod=Tempo I
!	!	!	!	!	!	!LO:TX:a:B:t=Tempo Io:mod=	!	!	!LO:TX:a:B:t=Tempo Io:mod=	!	!	!LO:TX:a:B:t=Tempo Io:mod=	!	!	!	!	!	!	!	!	!	!	!	!	!
.	.	.	.	.	.	8.c#/L	p	p	8.e\L	p	p	8ccc#] 8cc#\]	.	.	.	.	.	.	.	.	.	.	.	.	.
.	.	.	.	.	.	.	.	.	.	.	.	8r	.	.	.	.	.	.	.	.	.	.	.	.	.
.	.	.	.	.	.	16A/Jk	.	.	16c#\Jk	.	.	.	.	.	.	.	.	.	.	.	.	.	.	.	.
4BB/)	.	.	4BB/)	.	.	8.A/L	.	.	8.c#\L	.	.	4r	.	.	4BB/	4BB\	.	.	.	.	.	.	.	.	.
.	.	.	.	.	.	16A/Jk	.	.	16c#\Jk	.	.	.	.	.	.	.	.	.	.	.	.	.	.	.	.
=41	=41	=41	=41	=41	=41	=41	=41	=41	=41	=41	=41	=41	=41	=41	=41	=41	=41	=41	=41	=41	=41	=41	=41	=41	=41
*	*	*	*	*	*	*	*	*	*	*	*	*	*	*	*	*	*	*	*^	*	*	*	*	*	*
!	!	!	!	!	!	!	!	!	!	!	!	!	!	!	!	!	!	!	!	!	!	!	!LO:MO:mod=2.eyy]/ 2.a_	!LO:MO:mod=2.e\])	!	!
(4C#/	.	.	(4C#/	.	.	8.A/L	.	.	8.c#\L	.	.	8r	.	.	4C#/	4C#\	.	.	2.c#/_	2.A\_	.	.	2.a_ 2.e]/	2.e\>	.	.
!	!	!	!	!	!	!	!	!	!	!	!	!LO:TX:a:t= :mod=[unis.]	!	!	!	!	!	!	!	!	!	!	!	!	!	!
.	.	.	.	.	.	.	.	.	.	.	.	(8a\L	p	p	.	.	.	.	.	.	.	.	.	.	.	.
.	.	.	.	.	.	16A/Jk	.	.	16c#\Jk	.	.	.	.	.	.	.	.	.	.	.	.	.	.	.	.	.
4AA/	.	.	4AA/	.	.	8.A/L	.	.	8.c#\L	.	.	8cc#\	.	.	4AA/	4AA\	.	.	.	.	.	.	.	.	.	.
.	.	.	.	.	.	.	.	.	.	.	.	8ee\	.	.	.	.	.	.	.	.	.	.	.	.	.	.
.	.	.	.	.	.	16A/Jk	.	.	16c#\Jk	.	.	.	.	.	.	.	.	.	.	.	.	.	.	.	.	.
4EE/)	.	.	4EE/)	.	.	8.A/L	.	.	8.c#\L	.	.	8gg#\	.	.	4EE/	4EE\	.	.	.	.	.	.	.	.	.	.
.	.	.	.	.	.	.	.	.	.	.	.	8aa\J)	.	.	.	.	.	.	.	.	.	.	.	.	.	.
.	.	.	.	.	.	16A/Jk	.	.	16c#\Jk	.	.	.	.	.	.	.	.	.	.	.	.	.	.	.	.	.
=42	=42	=42	=42	=42	=42	=42	=42	=42	=42	=42	=42	=42	=42	=42	=42	=42	=42	=42	=42	=42	=42	=42	=42	=42	=42	=42
4FF#/	.	.	(4FF#/	.	.	8.A/L	.	.	8.c#/L	.	.	4.aa\	.	.	4FF#/	4FF#\	.	.	4c#/]	2.A\_	.	.	2.a/_]	(4c#\	.	.
.	.	.	.	.	.	16A/Jk	.	.	16c#/Jk	.	.	.	.	.	.	.	.	.	.	.	.	.	.	.	.	.
*	*	*	*	*	*	*	*	*	*	*	*	*	*	*	*	*	*	*	*	*	*	*	*	*2\right	*	*
!	!	!	!	!	!	!	!	!	!	!	!	!	!	!	!	!LO:SIC:s=4DD\)	!	!	!	!	!	!	!	!	!	!
4r	.	.	4DD/)	.	.	8.A/L	.	.	8.B/L	.	.	.	.	.	4DD/)	4DD\	.	.	(2B/	.	.	.	.	[2f#\	.	.
.	.	.	.	.	.	.	.	.	.	.	.	(8aa\L	.	.	.	.	.	.	.	.	.	.	.	.	.	.
.	.	.	.	.	.	16A/Jk	.	.	16B/Jk	.	.	.	.	.	.	.	.	.	.	.	.	.	.	.	.	.
!	!	!	!	!	!	!	!	!	!	!	!	!	!	!	!LO:SIC:s=([4D^/	!LO:SIC:s=([4D^\	!	!	!	!	!	!	!	!	!	!
([4D^/	.	.	([4D^/	.	.	8.A/L	.	.	8.B/L	.	.	8ff#\	.	.	[4D^/	[4D\	.	.	.	.	.	.	.	.	.	.
.	.	.	.	.	.	.	.	.	.	.	.	8dd\J)	.	.	.	.	.	.	.	.	.	.	.	.	.	.
.	.	.	.	.	.	16A/Jk	.	.	16B/Jk	.	.	.	.	.	.	.	.	.	.	.	.	.	.	.	.	.
!!LO:LB:g=original
=43	=43	=43	=43	=43	=43	=43	=43	=43	=43	=43	=43	=43	=43	=43	=43	=43	=43	=43	=43	=43	=43	=43	=43	=43	=43	=43
*	*	*	*	*	*	*	*	*	*	*	*	*	*	*	*	*	*	*	*	*2\right	*	*	*	*2\right	*	*
!	!	!	!	!	!	!	!	!	!	!	!	!	!	!	!LO:SIC:s=4D/]	!	!	!	!	!	!	!	!	!	!	!
4D/]	.	.	4D/]	.	.	8.A/L	.	.	8.B/L	.	.	(8cc#\L	.	.	(4D/]	4D\]	.	.	4B/	2.A\]	.	.	2.a/]	2.f#\]	.	.
.	.	.	.	.	.	.	.	.	.	.	.	8dd\	.	.	.	.	.	.	.	.	.	.	.	.	.	.
.	.	.	.	.	.	16A/Jk	.	.	16B/Jk	.	.	.	.	.	.	.	.	.	.	.	.	.	.	.	.	.
4C#/)	.	.	4C#/)	.	.	8.A/L	.	.	8.c#/L	.	.	8ee\	.	.	4C#/	4C#\	.	.	4c#/	.	.	.	.	.	.	.
.	.	.	.	.	.	.	.	.	.	.	.	8ff#\)	.	.	.	.	.	.	.	.	.	.	.	.	.	.
.	.	.	.	.	.	16A/Jk	.	.	16c#/Jk	.	.	.	.	.	.	.	.	.	.	.	.	.	.	.	.	.
[4BB/	.	.	[4BB/	.	.	8.A/L	.	.	8.d\L	.	.	(8gg#\	.	.	[4BB/	[4BB\	.	.	4d/)	.	.	.	.	.	.	.
.	.	.	.	.	.	.	.	.	.	.	.	8ff#\J)	.	.	.	.	.	.	.	.	.	.	.	.	.	.
.	.	.	.	.	.	16A/Jk	.	.	16d\Jk	.	.	.	.	.	.	.	.	.	.	.	.	.	.	.	.	.
=44	=44	=44	=44	=44	=44	=44	=44	=44	=44	=44	=44	=44	=44	=44	=44	=44	=44	=44	=44	=44	=44	=44	=44	=44	=44	=44
*	*	*	*	*	*	*	*	*	*	*	*	*	*	*	*	*	*	*	*	*	*	*	*	*2\left	*	*
!	!	!	!	!	!	!	!	!	!	!	!	!	!	!	!	!LO:SIC:s=4BB\])	!	!	!	!	!	!	!	!	!	!
4BB/]	.	.	4BB/]	.	.	8.G#/L	.	.	8.d\L	.	.	(8ff#\	.	.	4BB/])	4BB\]	.	.	(2d/	(<[2.G#X\	.	.	2.e/)	2.e\)	.	.
.	.	.	.	.	.	.	.	.	.	.	.	4a#X/)	.	.	.	.	.	.	.	.	.	.	.	.	.	.
.	.	.	.	.	.	16G#/Jk	.	.	16d\Jk	.	.	.	.	.	.	.	.	.	.	.	.	.	.	.	.	.
!	!	!	!	!	!	!	!	!	!	!	!	!	!	!	!	!LO:SIC:s=(4EE\	!	!	!	!	!	!	!	!	!	!
(4EE/	.	.	(4EE/	.	.	8.G#/L	.	.	8.d\L	.	.	.	.	.	(4EE/	4EE\	.	.	.	.	.	.	.	.	.	.
.	.	.	.	.	.	.	.	.	.	.	.	(8b\L	.	.	.	.	.	.	.	.	.	.	.	.	.	.
.	.	.	.	.	.	16G#/Jk	.	.	16d\Jk	.	.	.	.	.	.	.	.	.	.	.	.	.	.	.	.	.
4E\)	.	.	4E\)	.	.	8.G#/L	.	.	8.c#\L	.	.	8cc#\	.	.	4E/	4E\	.	.	4c#/	.	.	.	.	.	.	.
.	.	.	.	.	.	.	.	.	.	.	.	8dd\J)	.	.	.	.	.	.	.	.	.	.	.	.	.	.
.	.	.	.	.	.	16G#/Jk	.	.	16c#\Jk	.	.	.	.	.	.	.	.	.	.	.	.	.	.	.	.	.
*	*	*	*	*	*	*	*	*	*	*	*	*	*	*	*	*	*	*	*	*	*	*	*v	*v	*	*
=45	=45	=45	=45	=45	=45	=45	=45	=45	=45	=45	=45	=45	=45	=45	=45	=45	=45	=45	=45	=45	=45	=45	=45	=45	=45
!	!	!	!	!	!	!	!	!	!	!	!	!	!	!	!	!	!	!	!	!	!	!	!LO:SIC:s=((y4g#\ 4b	!	!
(4D/	.	>	(4D/	.	>	8.G#/L	.	>	8.B/L	>	>	4.ee\	>	>	4D/	4D\	>	>	4B/	4G#\]	>	>	(4b (4g#\	>	>
.	.	.	.	.	.	16G#/Jk	.	.	16B/Jk	.	.	.	.	.	.	.	.	.	.	.	.	.	.	.	.
4C#/	>	.	4C#/	>	.	8.A/L	>	.	8.c#/L	.	.	.	.	.	4C#/	4C#\	.	.	4c#/	4A\	.	.	4cc# 4a\	.	.
.	.	.	.	.	.	.	.	.	.	.	.	(8ff#\L	.	.	.	.	.	.	.	.	.	.	.	.	.
.	.	.	.	.	.	16A/Jk	.	.	16c#/Jk	.	.	.	.	.	.	.	.	.	.	.	.	.	.	.	.
!	!	!	!	!	!	!	!	!	!	!	!	!	!	!	!	!LO:SIC:s=4BB\)	!	!	!	!	!	!	!	!	!
4BB/)	]]	]]	4BB/)	]]	]]	8.B/L	.	.	8.d\L	.	.	8gg#\	.	.	4BB/)	4BB\	.	.	4e/ 4E/))	4ryy	]]	]]	4g# 4d/))	]]	]]
.	.	.	.	.	.	.	.	.	.	.	.	8eee\J)	]]	]]	.	.	.	.	.	.	.	.	.	.	.
.	.	.	.	.	.	16d/Jk	]]	]]	16g#\Jk	]]	]]	.	.	.	.	.	.	.	.	.	.	.	.	.	.
=46	=46	=46	=46	=46	=46	=46	=46	=46	=46	=46	=46	=46	=46	=46	=46	=46	=46	=46	=46	=46	=46	=46	=46	=46	=46
*	*	*	*	*	*	*	*	*	*	*	*	*	*	*	*	*	*	*	*	*2\left	*	*	*	*	*
!	!	!	!	!	!	!	!	!	!	!	!	!	!	!	!	!	!LO:DY:a	!LO:DY:a	!	!	!	!	!LO:MO:mod=[2.c#/ (>[2.a	!	!
[2.AA/	pp	pp	[2.AA/	pp	pp	8.c#/L	pp	pp	8.a\L	pp	pp	4.eee\	pp	pp	[2.AA/	[2.AA\	] pp	] pp	(4.e/	[2.E\	pp	pp	(>[2.a [2.c#/	pp	pp
.	.	.	.	.	.	16c#/Jk	.	.	16a\Jk	.	.	.	.	.	.	.	.	.	.	.	.	.	.	.	.
.	.	.	.	.	.	[2c#/	.	.	[2a\	.	.	.	.	.	.	.	.	.	.	.	.	.	.	.	.
.	.	.	.	.	.	.	.	.	.	.	.	(8ccc#\L	.	.	.	.	.	.	<8c#/L	.	.	.	.	.	.
.	.	.	.	.	.	.	.	.	.	.	.	8bb\	.	.	.	.	.	.	8B/	.	.	.	.	.	.
.	.	.	.	.	.	.	.	.	.	.	.	8aa\J)	.	.	.	.	.	.	8A/J	.	.	.	.	.	.
=47	=47	=47	=47	=47	=47	=47	=47	=47	=47	=47	=47	=47	=47	=47	=47	=47	=47	=47	=47	=47	=47	=47	=47	=47	=47
*	*	*	*	*	*	*	*	*	*	*	*	*	*	*	*	*	*	*	*	*	*	*	*^	*	*
!	!	!	!	!	!	!	!	!	!	!	!	!	!	!	!	!	!	!	!	!	!	!	!LO:MO:mod=2.c#/_< 2.a]	!	!	!
2.AA/]	.	.	2.AA/]	.	.	2.c#/]	.	.	2.a\]	.	.	(8ee\L	.	.	2.AA/_	2.AA\_	.	.	2.e/)	2.E\_	.	.	2.a] 2.c#/_<	2.c#\	.	.
.	.	.	.	.	.	.	.	.	.	.	.	8ff#\	.	.	.	.	.	.	.	.	.	.	.	.	.	.
.	.	.	.	.	.	.	.	.	.	.	.	8gg#\	.	.	.	.	.	.	.	.	.	.	.	.	.	.
.	.	.	.	.	.	.	.	.	.	.	.	8aa\	.	.	.	.	.	.	.	.	.	.	.	.	.	.
.	.	.	.	.	.	.	.	.	.	.	.	8bb\	.	.	.	.	.	.	.	.	.	.	.	.	.	.
.	.	.	.	.	.	.	.	.	.	.	.	8ccc#\J)	.	.	.	.	.	.	.	.	.	.	.	.	.	.
=48	=48	=48	=48	=48	=48	=48	=48	=48	=48	=48	=48	=48	=48	=48	=48	=48	=48	=48	=48	=48	=48	=48	=48	=48	=48	=48
!	!	!	!	!	!	!	!	!	!	!	!	!	!	!	!	!	!	!	!	!	!	!	!LO:MO:mod=2.c#/_< [2.gX	!	!	!
8.AA/L	.	.	8.AA/L	.	.	8.c#/L	.	.	8.gn\L	.	.	(8cc#\	.	.	2.AA/_	2.AA\_	.	.	(4.c#/	2.E\_	.	.	[2.gX 2.c#/_<	2.c#\	.	.
.	.	.	.	.	.	.	.	.	.	.	.	4ccc#\)	.	.	.	.	.	.	.	.	.	.	.	.	.	.
16AA/Jk	.	.	16AA/Jk	.	.	16c#/Jk	.	.	16g\Jk	.	.	.	.	.	.	.	.	.	.	.	.	.	.	.	.	.
[2AA/	.	.	[2AA/	.	.	[2c#/	.	.	[2g\	.	.	.	.	.	.	.	.	.	.	.	.	.	.	.	.	.
.	.	.	.	.	.	.	.	.	.	.	.	(8bb\L	.	.	.	.	.	.	8B/L	.	.	.	.	.	.	.
.	.	.	.	.	.	.	.	.	.	.	.	8aa\	.	.	.	.	.	.	8A/	.	.	.	.	.	.	.
.	.	.	.	.	.	.	.	.	.	.	.	8ee\J)	.	.	.	.	.	.	8E/J	.	.	.	.	.	.	.
*	*	*	*	*	*	*	*	*	*	*	*	*	*	*	*	*	*	*	*	*	*	*	*v	*v	*	*
!!LO:PB:g=original
=49	=49	=49	=49	=49	=49	=49	=49	=49	=49	=49	=49	=49	=49	=49	=49	=49	=49	=49	=49	=49	=49	=49	=49	=49	=49
*	*	*	*	*	*	*2\right	*	*	*2\right	*	*	*	*	*	*	*	*	*	*	*2\right	*	*	*	*	*
!	!	!	!	!	!	!LO:TX:t=P:problem:zakończenie łuku górą	!	!	!LO:N:vis=2	!	!	!	!	!	!	!	!	!	!	!	!	!	!	!	!
2.AA/]	.	.	2.AA/]	.	.	2.c#\]	.	.	2.g\]	.	.	(8cc#\L	.	.	2.AA/]	2.AA\]	.	.	4c#/)	2.E\]	.	.	2.g] 2.c#/])	.	.
.	.	.	.	.	.	.	.	.	.	.	.	8dd\	.	.	.	.	.	.	.	.	.	.	.	.	.
.	.	.	.	.	.	.	.	.	.	.	.	8ee\	.	.	.	.	.	.	4r	.	.	.	.	.	.
.	.	.	.	.	.	.	.	.	.	.	.	8ff#\	.	.	.	.	.	.	.	.	.	.	.	.	.
.	.	.	.	.	.	.	.	.	.	.	.	8ggn\	.	.	.	.	.	.	4r	.	.	.	.	.	.
.	.	.	.	.	.	.	.	.	.	.	.	8aa\J)	.	.	.	.	.	.	.	.	.	.	.	.	.
=50	=50	=50	=50	=50	=50	=50	=50	=50	=50	=50	=50	=50	=50	=50	=50	=50	=50	=50	=50	=50	=50	=50	=50	=50	=50
*	*	*	*	*	*	*	*	*	*	*	*	*	*	*	*	*	*	*	*	*2\left	*	*	*	*	*
!	!	!	!	!	!	!	!	!	!	!	!	!	!	!	!	!LO:SIC:s=2.AA~\	!	!	!	!	!	!	!	!	!
(8.AA/L	.	.	(8.AA/L	.	.	(8.d\L	.	.	(8.f#\L	.	.	(<8a/	.	.	2.AA~/	2.AA\	.	.	4rff	[2.A\	.	.	2.f# 2.d~>/	.	.
.	.	.	.	.	.	.	.	.	.	.	.	4aa\)	.	.	.	.	.	.	.	.	.	.	.	.	.
16AA'/Jk)	.	.	16AA'/Jk)	.	.	16d'\Jk)	.	.	16f#'\Jk)	.	.	.	.	.	.	.	.	.	.	.	.	.	.	.	.
*	*	*	*	*	*	*2\left	*	*	*2\left	*	*	*	*	*	*	*	*	*	*	*	*	*	*	*	*
!	!	!	!	!	!	!	!	!	!	!	!	!	!	!	!	!	!	!	!	!	!	!LO:MO:mod=!LO&colon;DY&colon;a	!	!	!
!	!	!	!	!	!	!	!	!	!	!	!	!	!	!	!	!	!	!	!	!	!LO:DY:a	!LO:DY:a	!	!	!
2AA/	.	.	2AA/	.	.	2d\	.	.	2f#\	.	.	.	.	.	.	.	.	.	(8A/	.	p	p	.	.	.
.	.	.	.	.	.	.	.	.	.	.	.	(8ff#\L	.	.	.	.	.	.	4a/)	.	.	.	.	.	.
.	.	.	.	.	.	.	.	.	.	.	.	8ee\	.	.	.	.	.	.	.	.	.	.	.	.	.
.	.	.	.	.	.	.	.	.	.	.	.	8dd\J)	.	.	.	.	.	.	(8f#/	.	.	.	.	.	.
=51	=51	=51	=51	=51	=51	=51	=51	=51	=51	=51	=51	=51	=51	=51	=51	=51	=51	=51	=51	=51	=51	=51	=51	=51	=51
*	*	*	*	*	*	*	*	*	*	*	*	*	*	*	*	*	*	*	*	*2\right	*	*	*	*	*
!	!	!	!	!	!	!	!	!	!	!	!	!	!	!	!	!LO:SIC:s=2.AA~\	!	!	!	!	!	!	!	!	!
(8.AA/L	.	.	(8.AA/L	.	.	(8.d\L	.	.	(8.fn\L	.	.	(8cc#\	.	.	2.AA~/	2.AA\	.	.	8e/L	2.A\]	.	.	2.fX 2.d~>/	.	.
.	.	.	.	.	.	.	.	.	.	.	.	4aa\)	.	.	.	.	.	.	8d/J)	.	.	.	.	.	.
16AA'/Jk)	.	.	16AA'/Jk)	.	.	16d'\Jk)	.	.	16f'\Jk)	.	.	.	.	.	.	.	.	.	.	.	.	.	.	.	.
2AA/	.	.	2AA/	.	.	2d\	.	.	2f\	.	.	.	.	.	.	.	.	.	(8A/	.	.	.	.	.	.
.	.	.	.	.	.	.	.	.	.	.	.	(8ffn\L	.	.	.	.	.	.	4a/	.	.	.	.	.	.
.	.	.	.	.	.	.	.	.	.	.	.	8ee\	.	.	.	.	.	.	.	.	.	.	.	.	.
.	.	.	.	.	.	.	.	.	.	.	.	8dd\J)	.	.	.	.	.	.	8fX/)	.	.	.	.	.	.
=52	=52	=52	=52	=52	=52	=52	=52	=52	=52	=52	=52	=52	=52	=52	=52	=52	=52	=52	=52	=52	=52	=52	=52	=52	=52
!	!	!	!	!	!	!	!	!	!	!	!	!	!	!	!	!	!LO:HP:t=cres-cen-do	!LO:HP:t=cres-cen-do	!	!	!	!	!	!	!
!	!	!	!	!	!	!	!	!	!	!	!	!	!	!	!	!	!LO:HP:a	!	!	!	!	!	!	!	!
8.AA/L	.	.	8.AA/L	.	.	8.dL 8.B\	.	.	8.fnL 8.A\	.	.	(8fn/	.	.	[2.AA/	[2.AA\	<	.	[2.d/	[2.A\	.	.	(2.fX (2.B/	.	.
.	.	.	.	.	.	.	.	.	.	.	.	4ffn\)	.	.	.	.	.	.	.	.	.	.	.	.	.
16AA/Jk	.	.	16AA/Jk	.	.	16dJk 16B\	.	.	16fJk 16A\	.	.	.	.	.	.	.	.	.	.	.	.	.	.	.	.
!	!LO:HP:t=cres-cen-do	!LO:HP:t=cresc.	!	!LO:HP:t=crescen-do	!LO:HP:t=cresc.	!	!LO:HP:t=cres.-cendo	!LO:HP:t=cresc.	!	!LO:HP:t=crescendo	!LO:HP:t=cresc.	!	!	!	!	!	!	!	!	!	!	!	!	!	!
[2AA/	<	<	[2AA/	<	<	[2d [2B\	<	<	[2f [2A\	<	<	.	.	.	.	.	.	<	.	.	.	<	.	.	<
!	!	!	!	!	!	!	!	!	!	!	!	!	!LO:HP:t=cres-cen-do:ext=cd	!LO:HP:t=cres-cen-do:ext=cd	!	!	!	!	!	!	!	!	!	!	!
.	.	.	.	.	.	.	.	.	.	.	.	(8dd\L	<	<	.	.	.	.	.	.	.	.	.	.	.
!	!	!	!	!	!	!	!	!	!	!	!	!	!	!	!	!	!	!	!	!	!	!	!	!LO:HP:t=cres-cen-do	!LO:HP:t=cres-cen-do
!	!	!	!	!	!	!	!	!	!	!	!	!	!	!	!	!	!	!	!	!	!	!	!	!LO:HP:a	!
.	.	.	.	.	.	.	.	.	.	.	.	8b\	.	.	.	.	.	.	.	.	.	.	.	<	.
.	.	.	.	.	.	.	.	.	.	.	.	8a\J)	.	.	.	.	[[	.	.	.	.	.	.	.	.
=53	=53	=53	=53	=53	=53	=53	=53	=53	=53	=53	=53	=53	=53	=53	=53	=53	=53	=53	=53	=53	=53	=53	=53	=53	=53
!	!	!	!	!	!	!	!	!	!	!	!	!	!	!	!	!	!	!	!LO:TX:t=P:problem=zapis poprawiany i niewyraźny	!	!	!	!LO:TX:t=P:problem=zapis poprawiany i niewyraźny	!	!
!	!	!	!	!	!	!	!	!	!	!	!	!	!	!	!	!	!	!	!LO:HP:t=cres-cen-do	!	!	!	!	!	!
2AA/]	.	.	2AA/]	.	.	2d] 2B\]	.	.	2f] 2A\]	.	.	(8fn/L	.	.	2AA/]	2AA\]	.	.	2d\]	2A\]	<	.	4fX 4B/	.	.
.	.	.	.	.	.	.	.	.	.	.	.	8d/	.	.	.	.	.	.	.	.	.	.	.	.	.
.	.	.	.	.	.	.	.	.	.	.	.	8f/)	.	.	.	.	.	.	.	.	.	.	4r	.	[
.	.	.	.	.	.	.	.	.	.	.	.	(8A/	.	.	.	.	.	.	.	.	.	.	.	.	.
4r	.	.	4r	.	.	4r	.	.	4r	.	.	8B/	.	.	4r	4ryy	.	[	4r	4ryy	.	[	4r	[[	.
.	.	.	.	.	.	.	.	.	.	.	.	8d/J)	.	.	.	.	.	.	.	.	.	.	.	.	.
*	*	*	*	*	*	*	*	*	*	*	*	*	*	*	*v	*v	*	*	*	*	*	*	*	*	*
*	*	*	*	*	*	*	*	*	*	*	*	*	*	*	*	*	*	*v	*v	*	*	*	*	*
=54	=54	=54	=54	=54	=54	=54	=54	=54	=54	=54	=54	=54	=54	=54	=54	=54	=54	=54	=54	=54	=54	=54	=54
!LO:MO:mod=2.r	!	!	!LO:MO:mod=2.r	!	!	!LO:MO:mod=2.r	!	!	!LO:MO:mod=2.r	!	!	!	!	!	!	!	!	!LO:MO:mod=2.r	!	!	!LO:MO:mod=2.r	!	!
4r	.	.	4r	.	.	4r	.	.	4r	.	.	(8fn\L	.	.	2.r	.	.	2.ryy	[[	[[	2r	.	.
.	.	.	.	.	.	.	.	.	.	.	.	8a\	.	.	.	.	.	.	.	.	.	.	.
!LO:MO:mod=.	!	!	!LO:MO:mod=.	!	!	!LO:MO:mod=.	!	!	!LO:MO:mod=.	!	!	!	!	!	!	!	!	!	!	!	!	!	!
4r	.	.	4r	.	.	4r	.	.	4r	.	.	8b\)	[[	[[	.	.	.	.	.	.	.	.	.
.	.	.	.	.	.	.	.	.	.	.	.	(8dd\	.	.	.	.	.	.	.	.	.	.	.
!	!	!	!LO:TX:t=P:problem=zapis poprawiany i niewyraźny	!	!	!LO:TX:t=P:problem=zapis poprawiany i niewyraźny	!	!	!LO:TX:t=P:problem=zapis poprawiany i niewyraźny	!	!	!	!	!	!	!	!	!	!	!	!LO:MO:mod=.	!	!
!LO:MO:mod=.	!	!	!LO:MO:mod=.	!	!	!LO:MO:mod=.	!	!	!LO:MO:mod=.	!	!	!	!	!	!	!	!	!	!	!	!	!	!
4r	p	.	4r	p	.	4r	mf	.	4r	mf	.	8ffn\	.	.	.	.	.	.	.	.	4r	.	.
.	.	.	.	.	.	.	.	.	.	.	.	8aa\J)	.	.	.	.	.	.	.	.	.	.	.
!!LO:LB:g=original
=55	=55	=55	=55	=55	=55	=55	=55	=55	=55	=55	=55	=55	=55	=55	=55	=55	=55	=55	=55	=55	=55	=55	=55
*2\left	*	*	*2\left	*	*	*	*	*	*	*	*	*2\right	*	*	*	*	*	*	*	*	*2\left	*	*
*	*	*	*	*	*	*	*	*	*	*	*	*	*	*	*	*	*	*	*	*	*^	*^	*^
!	!	!	!	!	!	!	!	!	!	!	!	!	!	!	!	!	!	!	!	!	!	!	!	!	!LO:MO:mod=!LO&colon;DY&colon;a	!
!	!	!	!	!	!	!LO:TX:b:i:t=espressivo:mod=espress.	!	!LO:DY:ed=brack	!LO:TX:b:i:t=espressivo:mod=espress.	!	!LO:DY:ed=brack	!	!	!	!	!	!	!	!	!	!	!	!LO:DY:a	!	!LO:DY:a	!
[2.E\	p	p	[2.E\	p	p	4.cc#\	.	p	4.cc#\	.	p	[2.aa\	p <	p <	[2.E [2.EE/	p	p	(2.c# (2.A/	p	p	(4.cc#/	[2.e\	mf	p	mf	p
!	!	!	!	!	!	!	!	!	!	!	!	!	!	!	!	!	!	!	!	!	!LO:TX:a:i:t=espressivo:mod=espress.	!	!	!	!	!
.	.	.	.	.	.	(8b\L	.	.	(8b\L	.	.	.	.	.	.	.	.	.	.	.	8b/L	.	.	.	.	.
.	.	.	.	.	.	8a\	.	.	8a\	.	.	.	.	.	.	.	.	.	.	.	8a/	.	.	.	.	.
.	.	.	.	.	.	8f#\J)	.	.	8f#\J)	.	.	.	.	.	.	.	.	.	.	.	8f#/J	.	.	.	.	.
*	*	*	*	*	*	*	*	*	*	*	*	*	*	*	*	*	*	*	*	*	*	*	*v	*v	*	*
*	*	*	*	*	*	*	*	*	*	*	*	*	*	*	*	*	*	*	*	*	*	*	*	*v	*v
=56	=56	=56	=56	=56	=56	=56	=56	=56	=56	=56	=56	=56	=56	=56	=56	=56	=56	=56	=56	=56	=56	=56	=56	=56
2.E\_	.	.	2.E\]	.	.	(8e\L	.	.	(8e\L	.	.	2.aa\_	[[	[[	2.E] 2.EE/]	.	.	2e 2c#\))	.	.	8e/L	4e\]	.	.
.	.	.	.	.	.	8c#\	.	.	8c#\	.	.	.	.	.	.	.	.	.	.	.	8c#/	.	.	.
!	!	!	!	!	!	!	!	!	!	!	!	!	!	!	!	!	!	!	!	!	!	!LO:SIC:s=4rD	!	!
.	.	.	.	.	.	8A\	.	.	8A\	.	.	.	.	.	.	.	.	.	.	.	8A/	4r	.	.
.	.	.	.	.	.	8B\)	.	.	8B\)	.	.	.	.	.	.	.	.	.	.	.	8B/	.	.	.
.	.	.	.	.	.	(8c#\	.	.	(8c#\	.	.	.	.	.	.	.	.	[4c# [4A/	.	.	8c#/	4r	.	.
.	.	.	.	.	.	8f#\J)	.	.	8f#\J)	.	.	.	.	.	.	.	.	.	.	.	8f#/J	.	.	.
=57	=57	=57	=57	=57	=57	=57	=57	=57	=57	=57	=57	=57	=57	=57	=57	=57	=57	=57	=57	=57	=57	=57	=57	=57
*	*	*	*	*	*	*	*	*	*	*	*	*	*	*	*^	*	*	*	*	*	*	*	*	*
*	*	*	*	*	*	*	*	*	*	*	*	*	*	*	*	*2\right	*	*	*	*	*	*	*	*	*
!	!	!	!	!	!	!	!	!	!	!	!	!	!	!	!LO:TX:a:i:t=espress.	!	!LO:DY:a:rj	!LO:DY:a:rj	!	!	!	!LO:N:vis=2	!	!	!
2.E\]	.	.	(4.c#\	mf	mf	(2.e\	.	.	[2.e\	.	.	2.aa\]	>	>	(4.c#/	[2.EE\	mf	mf	2c#] 2A/]	.	.	2e/)	2.r	.	.
!	!	!	!LO:TX:b:i:t=espress:mod=espress.	!	!	!	!	!	!	!	!	!	!	!	!	!	!	!	!	!	!	!	!	!	!
.	.	.	8B\L	.	.	.	.	.	.	.	.	.	.	.	8B/L	.	.	.	.	.	.	.	.	.	.
!	!	!	!	!	!	!	!	!	!	!	!	!	!	!	!	!	!	!	!LO:MO:mod=(<4c#\ [4e	!	!	!	!	!	!
.	>	>	8A\	>	>	.	>	>	.	>	>	.	.	.	8A/	.	.	.	(<[4e 4c#\	.	.	4r	.	.	.
.	.	.	8F#\J)	.	.	.	.	.	.	.	.	.	.	.	8F#/J	.	.	.	.	.	.	.	.	.	.
*	*	*	*	*	*	*	*	*	*	*	*	*	*	*	*	*	*	*	*	*	*	*v	*v	*	*
=58	=58	=58	=58	=58	=58	=58	=58	=58	=58	=58	=58	=58	=58	=58	=58	=58	=58	=58	=58	=58	=58	=58	=58	=58
*	*	*	*	*	*	*	*	*	*	*	*	*2\left	*	*	*	*	*	*	*2\left	*	*	*	*	*
!	!	!	!	!	!	!	!	!	!	!	!	!	!	!	!	!	!	!	!	!	!	!LO:TX:a:t=I	!	!
2.EE/	.	.	(8E/L	.	.	2.d\)	.	.	2.e\]	.	.	[2gg#\	.	.	8E/L	2.EE\]	.	.	2.e] 2.d\)	>]	>]	(2.G#/	pp	pp
.	.	.	8F#/	.	.	.	.	.	.	.	.	.	.	.	8F#/	.	.	.	.	.	.	.	.	.
.	.	.	8E/	.	.	.	.	.	.	.	.	.	.	.	8E/	.	>	>	.	.	.	.	.	.
.	.	.	8BB/	.	.	.	.	.	.	.	.	.	.	.	8BB/	.	.	.	.	.	.	.	.	.
.	.	.	8C#/	.	.	.	.	.	.	.	.	8gg#\L]	]]	]]	8C#/	.	.	.	.	.	.	.	.	.
.	]]	]]	8BB/J)	]]	]]	.	.	.	.	.	.	(8ee\J	.	.	8BB/J)	.	.	.	.	.	.	.	.	.
=59	=59	=59	=59	=59	=59	=59	=59	=59	=59	=59	=59	=59	=59	=59	=59	=59	=59	=59	=59	=59	=59	=59	=59	=59
*	*	*	*	*	*	*	*	*	*	*	*	*	*	*	*	*2\left	*	*	*	*	*	*	*	*
!	!	!	!	!	!	!	!	!	!	!	!	!	!	!	!LO:MO:mod=([<2.AA/	!	!	!	!	!	!	!	!	!
[2.AA/	pp	pp	[2.AA/	pp	pp	[2.c#\	] pp	] pp	[2.e\	] pp	] pp	4.ccc#\)	p	p	([<2.AA/	2.AA\	] pp	] pp	[2.e [2.c#\	pp	pp	2A/)	.	.
.	.	.	.	.	.	.	.	.	.	.	.	(8bb\L	.	.	.	.	.	.	.	.	.	.	.	.
.	.	.	.	.	.	.	.	.	.	.	.	8aa\	.	.	.	.	.	.	.	.	.	4r	.	.
.	.	.	.	.	.	.	.	.	.	.	.	8gg#\J)	.	.	.	.	.	.	.	.	.	.	.	.
*	*	*	*	*	*	*	*	*	*	*	*	*	*	*	*v	*v	*	*	*	*	*	*	*	*
=60	=60	=60	=60	=60	=60	=60	=60	=60	=60	=60	=60	=60	=60	=60	=60	=60	=60	=60	=60	=60	=60	=60	=60
!	!	!	!	!	!	!	!	!	!	!	!	!	!	!	!LO:SIC:s=2.AA/_ [2.A/	!	!	!	!	!	!LO:TX:a:t=a 2:mod=	!	!
2.AA/]	.	.	2.AA/]	.	.	2.c#\]	.	.	2.e\_	.	.	(8ee\L	.	.	[2.A/ 2.AA/_)	.	.	2.e_ 2.c#\_	.	.	[2.a [2.e\	pp	pp
.	.	.	.	.	.	.	.	.	.	.	.	8cc#\	.	.	.	.	.	.	.	.	.	.	.
.	.	.	.	.	.	.	.	.	.	.	.	8a\	.	.	.	.	.	.	.	.	.	.	.
.	.	.	.	.	.	.	.	.	.	.	.	8b\	.	.	.	.	.	.	.	.	.	.	.
.	.	.	.	.	.	.	.	.	.	.	.	8cc#\	.	.	.	.	.	.	.	.	.	.	.
.	.	.	.	.	.	.	.	.	.	.	.	8ff#\J)	.	.	.	.	.	.	.	.	.	.	.
!!LO:PB:g=original
=61	=61	=61	=61	=61	=61	=61	=61	=61	=61	=61	=61	=61	=61	=61	=61	=61	=61	=61	=61	=61	=61	=61	=61
[2.AA/	.	.	[2.AA/	.	.	2.c# 2.E/	.	.	2.e\]	.	.	(8ee\L	.	.	2.A_ 2.AA/_	.	.	2.e_ 2.c#\_	.	.	2.a_ 2.e/_	.	.
.	.	.	.	.	.	.	.	.	.	.	.	8gg#\	>	>	.	.	.	.	.	.	.	.	.
.	.	.	.	.	.	.	.	.	.	.	.	8aa\	.	.	.	.	.	.	.	.	.	.	.
.	.	.	.	.	.	.	.	.	.	.	.	8bb\	.	.	.	.	.	.	.	.	.	.	.
.	.	.	.	.	.	.	.	.	.	.	.	8ccc#\	.	.	.	.	.	.	.	.	.	.	.
.	.	.	.	.	.	.	.	.	.	.	.	8fff#\J)	]	]	.	.	.	.	.	.	.	.	.
=62	=62	=62	=62	=62	=62	=62	=62	=62	=62	=62	=62	=62	=62	=62	=62	=62	=62	=62	=62	=62	=62	=62	=62
*	*	*	*	*	*	*	*	*	*	*	*	*	*	*	*^	*	*	*	*	*	*	*	*
*	*	*	*	*	*	*	*	*	*	*	*	*2\right	*	*	*	*	*	*	*	*	*	*	*	*
!!LO:TX:a:i:t= :mod=morendo
!	!	!	!	!	!	!LO:TX:b:i:t=mordendo:mod=	!	!	!LO:TX:b:i:t=morden-do:mod=	!	!	!LO:TX:b:i:t=mordendo:mod=	!	!	!	!	!	!	!	!	!	!	!	!
!	!	!	!	!	!	!	!	!	!	!	!	!	!	!	!LO:SIC:s=4.A/] 4.AA/])	!	!	!	!	!	!	!	!	!
4.AA/]	.	.	4.AA/]	.	.	[2.c#/	.	.	[2.a\	.	.	[2.eee\	.	.	4.A/] 4.AA/]	4.ryyyy	.	.	2.e] 2.c#\]	.	.	2.a] 2.e/]	.	.
!LO:TX:b:i:t=mordendo:mod=	!	!	!LO:TX:b:i:t=mordendo:mod=	!	!	!	!	!	!	!	!	!	!	!	!	!	!	!	!LO:TX:b:i:t=mordendo:mod=	!	!	!LO:TX:b:i:t=mordendo:mod=	!	!
(8C#\L	.	.	(8C#\L	.	.	.	.	.	.	.	.	.	.	.	(8C#/L	(8C#\L	.	.	.	.	.	.	.	.
8F#\	.	.	8F#\	.	.	.	.	.	.	.	.	.	.	.	8F#/	8F#\	.	.	.	.	.	.	.	.
8E\J)	.	.	8E\J)	.	.	.	.	.	.	.	.	.	.	.	8E/J	8E\J	.	.	.	.	.	.	.	.
=63	=63	=63	=63	=63	=63	=63	=63	=63	=63	=63	=63	=63	=63	=63	=63	=63	=63	=63	=63	=63	=63	=63	=63	=63
*	*	*	*	*	*	*	*	*	*	*	*	*	*	*	*	*	*	*	*	*	*	*2\right	*	*
!	!	!	!	!	!	!	!	!	!	!	!	!LO:N:vis=2	!	!	!LO:SIC:s=8AAyy/L 8A	!	!	!	!	!	!	!	!	!
(8A\L	.	.	(8A\L	.	.	2.c#/]	.	.	2.a\]	.	.	2.eee\]	.	.	8AL 8AA/	8AA\L	.	.	[2.e [2.c#\	.	.	[2.ee [2.a\	.	.
!	!	!	!	!	!	!	!	!	!	!	!	!	!	!	!LO:SIC:s=8GG#yy/ 8G#	!	!	!	!	!	!	!	!	!
8G#\	.	.	8G#\	.	.	.	.	.	.	.	.	.	.	.	8G# 8GG#/	8GG#\	.	.	.	.	.	.	.	.
!	!	!	!	!	!	!	!	!	!	!	!	!	!	!	!LO:SIC:s=8AAyy/ 8A	!	!	!	!	!	!	!	!	!
8A\)	.	.	8A\)	.	.	.	.	.	.	.	.	.	.	.	8A 8AA/	8AA\	.	.	.	.	.	.	.	.
(8C#\	.	.	(8C#\	.	.	.	.	.	.	.	.	.	.	.	8C#/	8C#\	.	.	.	.	.	.	.	.
8F#\	.	.	8F#\	.	.	.	.	.	.	.	.	.	.	.	8F#/	8F#\	.	.	.	.	.	.	.	.
8E\J)	.	.	8E\J)	.	.	.	.	.	.	.	.	.	.	.	8E/J)	8E\J)	.	.	.	.	.	.	.	.
*	*	*	*	*	*	*	*	*	*	*	*	*	*	*	*v	*v	*	*	*	*	*	*	*	*
=64	=64	=64	=64	=64	=64	=64	=64	=64	=64	=64	=64	=64	=64	=64	=64	=64	=64	=64	=64	=64	=64	=64	=64
*	*	*	*	*	*	*	*	*	*	*	*	*	*	*	*	*	*	*	*	*	*2\left	*	*
!	!	!	!	!	!	!	!	!	!	!	!	!	!	!	!LO:TX:t=P:problem=zapis poprawiany	!	!	!LO:TX:t=P:problem=zapis poprawiany	!	!	!LO:TX:t=P:problem=zapis poprawiany	!	!
!	!	!	!	!	!	!	!	!	!	!	!	!	!	!	!LO:N:vis=2.	!	!	!LO:N:vis=2.	!	!	!LO:N:vis=2.	!	!
2.AA;/	.	.	2.E 2.AA;/	.	.	2.a 2.c#;\	.	.	2.ee;\	.	.	2.ccc#;\	.	.	2A 2AA/	.	.	2e] 2c#\]	.	.	2ee] 2a\]	.	.
.	.	.	.	.	.	.	.	.	.	.	.	.	.	.	4r;	.	.	4r;	.	.	4r;	.	.
==	==	==	==	==	==	==	==	==	==	==	==	==	==	==	==	==	==	==	==	==	==	==	==
*-	*-	*-	*-	*-	*-	*-	*-	*-	*-	*-	*-	*-	*-	*-	*-	*-	*-	*-	*-	*-	*-	*-	*-
!!!system-decoration: s1,s2,s3,s4,s5,s6,{s7,s8}
!!!system-decoration-mod: [(g1)][(g2)]
!!!RDF**kern: > = above
!!!RDF**kern: < = below
!!!ENC: Andrzej Gręziak
!!!END: 2021-05-15
!!!ENC: Kamil Watkowski
!!!END: 2021-06-11
!!!ENC-modern: Katarzyna Serwa
!!!END-modern: 2022-08-20
!!!filter-modern: sic -sq | shed -e "s/LO:DY:(a|b|rj)/LO:dy:$1/L" | autostem -r | tie -s | shed -k -e "s/[<>]//g" | shed -k -e "s/:TUP:/:tup:/L" | shed -e "s/TX(.*):t=P:/tx$1:t=P:/LG" | shed -e "s/^(\d+[\/\\]right)/$1yy/I; s/^(\d+[\/\\]left)/$1yy/I" | modori -m
